; generated by Slic3r 1.3.0 on 2019-02-16 at 16:14:21

; external perimeters extrusion width = 0.55mm (4.37mm^3/s)
; perimeters extrusion width = 0.70mm (11.44mm^3/s)
; infill extrusion width = 0.62mm (13.45mm^3/s)
; solid infill extrusion width = 0.70mm (3.81mm^3/s)
; top infill extrusion width = 0.70mm (2.86mm^3/s)

M107
M190 S60 ; set bed temperature and wait for it to be reached
M104 S200 ; set temperature
G28 ; home all axes
G1 Z5 F5000 ; lift nozzle

; Filament gcode

M109 S200 ; set temperature and wait for it to be reached
G21 ; set units to millimeters
G90 ; use absolute coordinates
M82 ; use absolute distances for extrusion
G92 E0
G1 Z0.350 F2400.000
G1 E-2.00000 F2400.00000
G92 E0
G1 X79.915 Y65.753 F2400.000
G1 E2.00000 F2400.00000
G1 F600
G1 X81.668 Y64.274 E2.20854
G1 X83.820 Y63.481 E2.41708
G1 X85.000 Y63.375 E2.52479
G1 X115.000 Y63.375 E5.25268
G1 X117.259 Y63.772 E5.46122
G1 X119.247 Y64.915 E5.66977
G1 X120.726 Y66.668 E5.87831
G1 X121.519 Y68.820 E6.08685
G1 X121.625 Y70.000 E6.19456
G1 X121.625 Y130.000 E11.65033
G1 X121.228 Y132.259 E11.85888
G1 X120.085 Y134.247 E12.06742
G1 X118.332 Y135.726 E12.27596
G1 X116.180 Y136.519 E12.48450
G1 X115.000 Y136.625 E12.59221
G1 X85.000 Y136.625 E15.32010
G1 X82.741 Y136.228 E15.52864
G1 X80.753 Y135.085 E15.73719
G1 X79.274 Y133.332 E15.94573
G1 X78.481 Y131.180 E16.15427
G1 X78.375 Y130.000 E16.26198
G1 X78.375 Y70.000 E21.71775
G1 X78.772 Y67.741 E21.92630
G1 X79.878 Y65.818 E22.12802
G1 E20.12802 F2400.00000
G92 E0
G1 X94.122 Y84.314 F2400.000
G1 E2.00000 F2400.00000
G1 F600
G1 X94.122 Y120.686 E5.30784
G1 X94.314 Y120.878 E5.33256
G1 X116.707 Y120.878 E7.36913
G1 X119.122 Y123.293 E7.67968
G1 X119.122 Y131.707 E8.44497
G1 X116.707 Y134.122 E8.75553
G1 X83.293 Y134.122 E11.79446
G1 X80.878 Y131.707 E12.10501
G1 X80.878 Y68.293 E17.87231
G1 X83.293 Y65.878 E18.18287
G1 X116.707 Y65.878 E21.22180
G1 X119.122 Y68.293 E21.53236
G1 X119.122 Y81.707 E22.75237
G1 X116.707 Y84.122 E23.06293
G1 X94.314 Y84.122 E25.09949
G1 X94.175 Y84.261 E25.11740
G1 X93.497 Y83.689 F2400.000
G1 F600
G1 X93.497 Y121.311 E28.53892
G1 X93.689 Y121.503 E28.56364
G1 X116.448 Y121.503 E30.63350
G1 X118.497 Y123.552 E30.89697
G1 X118.497 Y131.448 E31.61517
G1 X116.448 Y133.497 E31.87864
G1 X83.552 Y133.497 E34.87048
G1 X81.503 Y131.448 E35.13395
G1 X81.503 Y68.552 E40.85416
G1 X83.552 Y66.503 E41.11762
G1 X116.448 Y66.503 E44.10946
G1 X118.497 Y68.552 E44.37293
G1 X118.497 Y81.448 E45.54586
G1 X116.448 Y83.497 E45.80933
G1 X93.689 Y83.497 E47.87919
G1 X93.550 Y83.636 E47.89709
G1 X92.872 Y83.064 F2400.000
G1 F600
G1 X92.872 Y121.936 E51.43229
G1 X93.064 Y122.128 E51.45702
G1 X116.190 Y122.128 E53.56017
G1 X117.872 Y123.810 E53.77655
G1 X117.872 Y131.190 E54.44766
G1 X116.190 Y132.872 E54.66404
G1 X83.810 Y132.872 E57.60880
G1 X82.128 Y131.190 E57.82518
G1 X82.128 Y68.810 E63.49830
G1 X83.810 Y67.128 E63.71468
G1 X116.190 Y67.128 E66.65943
G1 X117.872 Y68.810 E66.87581
G1 X117.872 Y81.190 E68.00165
G1 X116.190 Y82.872 E68.21803
G1 X93.064 Y82.872 E70.32118
G1 X92.925 Y83.011 E70.33909
G1 X92.247 Y82.439 F2400.000
G1 F600
G1 X92.247 Y122.561 E73.98797
G1 X92.439 Y122.753 E74.01269
G1 X115.931 Y122.753 E76.14915
G1 X117.247 Y124.069 E76.31844
G1 X117.247 Y130.931 E76.94246
G1 X115.931 Y132.247 E77.11175
G1 X84.069 Y132.247 E80.00941
G1 X82.753 Y130.931 E80.17871
G1 X82.753 Y69.069 E85.80474
G1 X84.069 Y67.753 E85.97403
G1 X115.931 Y67.753 E88.87169
G1 X117.247 Y69.069 E89.04099
G1 X117.247 Y80.931 E90.11973
G1 X115.931 Y82.247 E90.28903
G1 X92.439 Y82.247 E92.42548
G1 X92.300 Y82.386 E92.44338
G1 X91.622 Y81.814 F2400.000
G1 F600
G1 X91.622 Y123.186 E96.20595
G1 X91.814 Y123.378 E96.23067
G1 X115.672 Y123.378 E98.40042
G1 X116.622 Y124.328 E98.52263
G1 X116.622 Y130.672 E99.09956
G1 X115.672 Y131.622 E99.22176
G1 X84.328 Y131.622 E102.07233
G1 X83.378 Y130.672 E102.19454
G1 X83.378 Y69.328 E107.77348
G1 X84.328 Y68.378 E107.89568
G1 X115.672 Y68.378 E110.74626
G1 X116.622 Y69.328 E110.86846
G1 X116.622 Y80.672 E111.90012
G1 X115.672 Y81.622 E112.02233
G1 X91.814 Y81.622 E114.19208
G1 X91.675 Y81.761 E114.20998
G1 X90.997 Y81.189 F2400.000
G1 F600
G1 X90.997 Y123.811 E118.08623
G1 X91.189 Y124.003 E118.11095
G1 X115.413 Y124.003 E120.31400
G1 X115.997 Y124.587 E120.38911
G1 X115.997 Y130.413 E120.91895
G1 X115.413 Y130.997 E120.99407
G1 X84.587 Y130.997 E123.79755
G1 X84.003 Y130.413 E123.87267
G1 X84.003 Y69.587 E129.40452
G1 X84.587 Y69.003 E129.47964
G1 X115.413 Y69.003 E132.28312
G1 X115.997 Y69.587 E132.35824
G1 X115.997 Y80.413 E133.34281
G1 X115.413 Y80.997 E133.41792
G1 X91.189 Y80.997 E135.62097
G1 X91.050 Y81.136 E135.63887
G1 X90.372 Y80.564 F2400.000
G1 F600
G1 X90.372 Y124.436 E139.62881
G1 X90.564 Y124.628 E139.65353
G1 X115.154 Y124.628 E141.88987
G1 X115.372 Y124.846 E141.91790
G1 X115.372 Y130.154 E142.40065
G1 X115.154 Y130.372 E142.42868
G1 X84.846 Y130.372 E145.18507
G1 X84.628 Y130.154 E145.21310
G1 X84.628 Y69.846 E150.69787
G1 X84.846 Y69.628 E150.72589
G1 X115.154 Y69.628 E153.48229
G1 X115.372 Y69.846 E153.51032
G1 X115.372 Y80.154 E154.44780
G1 X115.154 Y80.372 E154.47582
G1 X90.564 Y80.372 E156.71217
G1 X90.425 Y80.511 E156.73007
G1 E154.73007 F2400.00000
G92 E0
G1 X89.650 Y125.350 F2400.000
G1 E2.00000 F2400.00000
G1 F600
G1 X114.650 Y125.350 E4.27324
G1 X114.650 Y129.650 E4.66424
G1 X85.350 Y129.650 E7.32847
G1 X85.350 Y70.350 E12.72060
G1 X114.650 Y70.350 E15.38483
G1 X114.650 Y79.650 E16.23048
G1 X89.650 Y79.650 E18.50372
G1 X89.650 Y125.275 E22.65238
G1 X89.567 Y125.843 F2400.000
G1 X89.025 Y125.975 F2400.000
G1 F600
G1 X114.025 Y125.975 E24.92562
G1 X114.025 Y129.025 E25.20298
G1 X85.975 Y129.025 E27.75357
G1 X85.975 Y70.975 E33.03205
G1 X114.025 Y70.975 E35.58265
G1 X114.025 Y79.025 E36.31465
G1 X89.025 Y79.025 E38.58789
G1 X89.025 Y125.900 E42.85020
G1 X88.400 Y126.600 F2400.000
G1 F600
G1 X113.400 Y126.600 E45.12343
G1 X113.400 Y128.400 E45.28715
G1 X86.600 Y128.400 E47.72410
G1 X86.600 Y71.600 E52.88894
G1 X113.400 Y71.600 E55.32590
G1 X113.400 Y78.400 E55.94426
G1 X88.400 Y78.400 E58.21750
G1 X88.400 Y126.525 E62.59344
G1 E60.59344 F2400.00000
G92 E0
G1 X112.532 Y128.018 F2400.000
G1 E2.00000 F2400.00000
G1 F600
G1 X113.018 Y127.532 E2.06305
G1 X113.018 Y126.982 E2.11354
G1 X112.678 Y126.982 E2.14478
G1 X111.641 Y128.018 E2.27923
G1 X110.750 Y128.018 E2.36095
G1 X111.787 Y126.982 E2.49540
G1 X110.895 Y126.982 E2.57713
G1 X109.859 Y128.018 E2.71158
G1 X108.967 Y128.018 E2.79331
G1 X110.004 Y126.982 E2.92776
G1 X109.113 Y126.982 E3.00948
G1 X108.076 Y128.018 E3.14393
G1 X107.185 Y128.018 E3.22566
G1 X108.222 Y126.982 E3.36011
G1 X107.330 Y126.982 E3.44184
G1 X106.294 Y128.018 E3.57629
G1 X105.402 Y128.018 E3.65801
G1 X106.439 Y126.982 E3.79246
G1 X105.548 Y126.982 E3.87419
G1 X104.511 Y128.018 E4.00864
G1 X103.620 Y128.018 E4.09037
G1 X104.657 Y126.982 E4.22482
G1 X103.766 Y126.982 E4.30654
G1 X102.729 Y128.018 E4.44099
G1 X101.838 Y128.018 E4.52272
G1 X102.874 Y126.982 E4.65717
G1 X101.983 Y126.982 E4.73890
G1 X100.946 Y128.018 E4.87335
G1 X100.055 Y128.018 E4.95507
G1 X101.092 Y126.982 E5.08952
G1 X100.201 Y126.982 E5.17125
G1 X99.164 Y128.018 E5.30570
G1 X98.273 Y128.018 E5.38743
G1 X99.309 Y126.982 E5.52188
G1 X98.418 Y126.982 E5.60360
G1 X97.381 Y128.018 E5.73805
G1 X96.490 Y128.018 E5.81978
G1 X97.527 Y126.982 E5.95423
G1 X96.636 Y126.982 E6.03596
G1 X95.599 Y128.018 E6.17041
G1 X94.708 Y128.018 E6.25213
G1 X95.745 Y126.982 E6.38658
G1 X94.853 Y126.982 E6.46831
G1 X93.817 Y128.018 E6.60276
G1 X92.925 Y128.018 E6.68449
G1 X93.962 Y126.982 E6.81894
G1 X93.071 Y126.982 E6.90066
G1 X92.034 Y128.018 E7.03511
G1 X91.143 Y128.018 E7.11684
G1 X92.180 Y126.982 E7.25129
G1 X91.288 Y126.982 E7.33302
G1 X90.252 Y128.018 E7.46747
G1 X89.360 Y128.018 E7.54919
G1 X90.397 Y126.982 E7.68364
G1 X89.506 Y126.982 E7.76537
G1 X88.469 Y128.018 E7.89982
G1 X87.578 Y128.018 E7.98155
G1 X88.615 Y126.982 E8.11600
G1 X88.018 Y126.982 E8.17069
G1 X88.018 Y126.687 E8.19772
G1 X86.982 Y127.724 E8.33217
G1 X86.982 Y126.832 E8.41390
G1 X88.018 Y125.796 E8.54835
G1 X88.018 Y124.904 E8.63008
G1 X86.982 Y125.941 E8.76453
G1 X86.982 Y125.050 E8.84625
G1 X88.018 Y124.013 E8.98070
G1 X88.018 Y123.122 E9.06243
G1 X86.982 Y124.159 E9.19688
G1 X86.982 Y123.267 E9.27861
G1 X88.018 Y122.231 E9.41306
G1 X88.018 Y121.339 E9.49478
G1 X86.982 Y122.376 E9.62923
G1 X86.982 Y121.485 E9.71096
G1 X88.018 Y120.448 E9.84541
G1 X88.018 Y119.557 E9.92714
G1 X86.982 Y120.594 E10.06159
G1 X86.982 Y119.703 E10.14331
G1 X88.018 Y118.666 E10.27776
G1 X88.018 Y117.775 E10.35949
G1 X86.982 Y118.811 E10.49394
G1 X86.982 Y117.920 E10.57566
G1 X88.018 Y116.883 E10.71012
G1 X88.018 Y115.992 E10.79184
G1 X86.982 Y117.029 E10.92629
G1 X86.982 Y116.138 E11.00802
G1 X88.018 Y115.101 E11.14247
G1 X88.018 Y114.210 E11.22419
G1 X86.982 Y115.246 E11.35865
G1 X86.982 Y114.355 E11.44037
G1 X88.018 Y113.318 E11.57482
G1 X88.018 Y112.427 E11.65655
G1 X86.982 Y113.464 E11.79100
G1 X86.982 Y112.573 E11.87272
G1 X88.018 Y111.536 E12.00717
G1 X88.018 Y110.645 E12.08890
G1 X86.982 Y111.682 E12.22335
G1 X86.982 Y110.790 E12.30508
G1 X88.018 Y109.754 E12.43953
G1 X88.018 Y108.862 E12.52125
G1 X86.982 Y109.899 E12.65570
G1 X86.982 Y109.008 E12.73743
G1 X88.018 Y107.971 E12.87188
G1 X88.018 Y107.080 E12.95361
G1 X86.982 Y108.117 E13.08806
G1 X86.982 Y107.225 E13.16978
G1 X88.018 Y106.189 E13.30423
G1 X88.018 Y105.298 E13.38596
G1 X86.982 Y106.334 E13.52041
G1 X86.982 Y105.443 E13.60214
G1 X88.018 Y104.406 E13.73659
G1 X88.018 Y103.515 E13.81831
G1 X86.982 Y104.552 E13.95276
G1 X86.982 Y103.661 E14.03449
G1 X88.018 Y102.624 E14.16894
G1 X88.018 Y101.733 E14.25067
G1 X86.982 Y102.769 E14.38512
G1 X86.982 Y101.878 E14.46684
G1 X88.018 Y100.841 E14.60129
G1 X88.018 Y99.950 E14.68302
G1 X86.982 Y100.987 E14.81747
G1 X86.982 Y100.096 E14.89920
G1 X88.018 Y99.059 E15.03365
G1 X88.018 Y98.168 E15.11537
G1 X86.982 Y99.205 E15.24982
G1 X86.982 Y98.313 E15.33155
G1 X88.018 Y97.277 E15.46600
G1 X88.018 Y96.385 E15.54773
G1 X86.982 Y97.422 E15.68218
G1 X86.982 Y96.531 E15.76390
G1 X88.018 Y95.494 E15.89835
G1 X88.018 Y94.603 E15.98008
G1 X86.982 Y95.640 E16.11453
G1 X86.982 Y94.748 E16.19626
G1 X88.018 Y93.712 E16.33071
G1 X88.018 Y92.820 E16.41243
G1 X86.982 Y93.857 E16.54688
G1 X86.982 Y92.966 E16.62861
G1 X88.018 Y91.929 E16.76306
G1 X88.018 Y91.038 E16.84479
G1 X86.982 Y92.075 E16.97924
G1 X86.982 Y91.184 E17.06096
G1 X88.018 Y90.147 E17.19541
G1 X88.018 Y89.256 E17.27714
G1 X86.982 Y90.292 E17.41159
G1 X86.982 Y89.401 E17.49332
G1 X88.018 Y88.364 E17.62777
G1 X88.018 Y87.473 E17.70949
G1 X86.982 Y88.510 E17.84394
G1 X86.982 Y87.619 E17.92567
G1 X88.018 Y86.582 E18.06012
G1 X88.018 Y85.691 E18.14185
G1 X86.982 Y86.727 E18.27630
G1 X86.982 Y85.836 E18.35802
G1 X88.018 Y84.799 E18.49247
G1 X88.018 Y83.908 E18.57420
G1 X86.982 Y84.945 E18.70865
G1 X86.982 Y84.054 E18.79038
G1 X88.018 Y83.017 E18.92483
G1 X88.018 Y82.126 E19.00655
G1 X86.982 Y83.163 E19.14100
G1 X86.982 Y82.271 E19.22273
G1 X88.018 Y81.235 E19.35718
G1 X88.018 Y80.343 E19.43891
G1 X86.982 Y81.380 E19.57336
G1 X86.982 Y80.489 E19.65508
G1 X88.018 Y79.452 E19.78953
G1 X88.018 Y78.561 E19.87126
G1 X86.982 Y79.598 E20.00571
G1 X86.982 Y78.706 E20.08744
G1 X88.018 Y77.670 E20.22189
G1 X87.532 Y78.156 F2400.000
G1 F600
G1 X87.532 Y78.018 E20.23448
G1 X87.670 Y78.018 E20.24708
G1 X93.706 Y71.982 E21.02995
G1 X94.598 Y71.982 E21.11168
G1 X88.561 Y78.018 E21.89455
G1 X89.452 Y78.018 E21.97627
G1 X95.489 Y71.982 E22.75915
G1 X96.380 Y71.982 E22.84087
G1 X90.343 Y78.018 E23.62374
G1 X91.235 Y78.018 E23.70547
G1 X97.271 Y71.982 E24.48834
G1 X98.163 Y71.982 E24.57007
G1 X92.126 Y78.018 E25.35294
G1 X93.017 Y78.018 E25.43467
G1 X99.054 Y71.982 E26.21754
G1 X99.945 Y71.982 E26.29926
G1 X93.908 Y78.018 E27.08214
G1 X94.799 Y78.018 E27.16386
G1 X100.836 Y71.982 E27.94674
G1 X101.727 Y71.982 E28.02846
G1 X95.691 Y78.018 E28.81133
G1 X96.582 Y78.018 E28.89306
G1 X102.619 Y71.982 E29.67593
G1 X103.510 Y71.982 E29.75766
G1 X97.473 Y78.018 E30.54053
G1 X98.364 Y78.018 E30.62226
G1 X104.401 Y71.982 E31.40513
G1 X105.292 Y71.982 E31.48685
G1 X99.256 Y78.018 E32.26973
G1 X100.147 Y78.018 E32.35145
G1 X106.184 Y71.982 E33.13432
G1 X107.075 Y71.982 E33.21605
G1 X101.038 Y78.018 E33.99892
G1 X101.929 Y78.018 E34.08065
G1 X107.966 Y71.982 E34.86352
G1 X108.857 Y71.982 E34.94525
G1 X102.820 Y78.018 E35.72812
G1 X103.712 Y78.018 E35.80984
G1 X109.748 Y71.982 E36.59272
G1 X110.640 Y71.982 E36.67444
G1 X104.603 Y78.018 E37.45732
G1 X105.494 Y78.018 E37.53904
G1 X111.531 Y71.982 E38.32191
G1 X112.422 Y71.982 E38.40364
G1 X106.385 Y78.018 E39.18651
G1 X107.277 Y78.018 E39.26824
G1 X113.018 Y72.277 E40.01286
G1 X113.018 Y73.168 E40.09459
G1 X108.168 Y78.018 E40.72364
G1 X109.059 Y78.018 E40.80536
G1 X113.018 Y74.059 E41.31884
G1 X113.018 Y74.950 E41.40056
G1 X109.950 Y78.018 E41.79846
G1 X110.841 Y78.018 E41.88018
G1 X113.018 Y75.841 E42.16250
G1 X113.018 Y76.733 E42.24423
G1 X111.733 Y78.018 E42.41097
G1 E40.41097 F2400.00000
G92 E0
G1 X86.982 Y77.815 F2400.000
G1 E2.00000 F2400.00000
G1 F600
G1 X92.815 Y71.982 E2.75653
G1 X91.924 Y71.982 E2.83825
G1 X86.982 Y76.924 E3.47920
G1 X86.982 Y76.033 E3.56092
G1 X91.033 Y71.982 E4.08630
G1 X90.142 Y71.982 E4.16802
G1 X86.982 Y75.142 E4.57782
G1 X86.982 Y74.250 E4.65954
G1 X89.250 Y71.982 E4.95376
G1 X88.359 Y71.982 E5.03548
G1 X86.982 Y73.359 E5.21412
G1 X86.982 Y72.468 E5.29585
G1 X87.468 Y71.982 E5.35891
M140 S0 ; set bed temperature
G1 Z0.650 F2400.000
G1 X88.529 Y126.471 F2400.000
G1 F3600
G1 X113.529 Y126.471 E7.34086
G1 X113.529 Y128.529 E7.50398
G1 X86.471 Y128.529 E9.64904
G1 X86.471 Y71.471 E14.17244
G1 X113.529 Y71.471 E16.31751
G1 X113.529 Y78.529 E16.87702
G1 X88.529 Y78.529 E18.85897
G1 X88.529 Y126.396 E22.65380
G1 X89.164 Y125.836 F2400.000
G1 F3600
G1 X114.164 Y125.836 E24.63575
G1 X114.164 Y129.164 E24.89965
G1 X85.836 Y129.164 E27.14549
G1 X85.836 Y70.836 E31.76968
G1 X114.164 Y70.836 E34.01553
G1 X114.164 Y79.164 E34.67581
G1 X89.164 Y79.164 E36.65776
G1 X89.164 Y125.761 E40.35182
G1 X89.725 Y125.275 F2400.000
G1 F1800
G1 X114.725 Y125.275 E41.86605
G1 X114.725 Y129.725 E42.13558
G1 X85.275 Y129.725 E43.91934
G1 X85.275 Y70.275 E47.52017
G1 X114.725 Y70.275 E49.30393
G1 X114.725 Y79.725 E49.87631
G1 X89.725 Y79.725 E51.39054
G1 X89.725 Y125.200 E54.14492
G1 X89.642 Y125.768 F2400.000
G1 X88.261 Y128.140 F2400.000
G1 F1200
G1 X89.167 Y128.140 E54.21737
G1 X87.886 Y126.860 E54.36215
G1 X88.793 Y126.860 E54.43460
G1 X90.073 Y128.140 E54.57939
G1 X90.980 Y128.140 E54.65184
G1 X89.699 Y126.860 E54.79662
G1 X90.605 Y126.860 E54.86907
G1 X91.886 Y128.140 E55.01385
G1 X92.792 Y128.140 E55.08630
G1 X91.512 Y126.860 E55.23108
G1 X92.418 Y126.860 E55.30353
G1 X93.699 Y128.140 E55.44831
G1 X94.605 Y128.140 E55.52076
G1 X93.324 Y126.860 E55.66554
G1 X94.231 Y126.860 E55.73799
G1 X95.511 Y128.140 E55.88278
G1 X96.418 Y128.140 E55.95523
G1 X95.137 Y126.860 E56.10001
G1 X96.043 Y126.860 E56.17246
G1 X97.324 Y128.140 E56.31724
G1 X98.231 Y128.140 E56.38969
G1 X96.950 Y126.860 E56.53447
G1 X97.856 Y126.860 E56.60692
G1 X99.137 Y128.140 E56.75170
G1 X100.043 Y128.140 E56.82415
G1 X98.762 Y126.860 E56.96893
G1 X99.669 Y126.860 E57.04138
G1 X100.950 Y128.140 E57.18616
G1 X101.856 Y128.140 E57.25861
G1 X100.575 Y126.860 E57.40340
G1 X101.482 Y126.860 E57.47585
G1 X102.762 Y128.140 E57.62063
G1 X103.669 Y128.140 E57.69308
G1 X102.388 Y126.860 E57.83786
G1 X103.294 Y126.860 E57.91031
G1 X104.575 Y128.140 E58.05509
G1 X105.481 Y128.140 E58.12754
G1 X104.201 Y126.860 E58.27232
G1 X105.107 Y126.860 E58.34477
G1 X106.388 Y128.140 E58.48955
G1 X107.294 Y128.140 E58.56200
G1 X106.013 Y126.860 E58.70679
G1 X106.920 Y126.860 E58.77924
G1 X108.200 Y128.140 E58.92402
G1 X109.107 Y128.140 E58.99647
G1 X107.826 Y126.860 E59.14125
G1 X108.732 Y126.860 E59.21370
G1 X110.013 Y128.140 E59.35848
G1 X110.920 Y128.140 E59.43093
G1 X109.639 Y126.860 E59.57571
G1 X110.545 Y126.860 E59.64816
G1 X111.826 Y128.140 E59.79294
G1 X112.732 Y128.140 E59.86539
