; generated by Slic3r 1.3.0 on 2019-02-16 at 18:12:47

; external perimeters extrusion width = 0.55mm (4.37mm^3/s)
; perimeters extrusion width = 0.70mm (11.44mm^3/s)
; infill extrusion width = 0.62mm (13.45mm^3/s)
; solid infill extrusion width = 0.70mm (3.81mm^3/s)
; top infill extrusion width = 0.70mm (2.86mm^3/s)

M107
M190 S60 ; set bed temperature and wait for it to be reached
M104 S200 ; set temperature
G28 ; home all axes
G1 Z5 F5000 ; lift nozzle

; Filament gcode

M109 S200 ; set temperature and wait for it to be reached
G21 ; set units to millimeters
G90 ; use absolute coordinates
M82 ; use absolute distances for extrusion
G92 E0
G1 Z0.350 F2400.000
G1 E-2.00000 F2400.00000
G92 E0
G1 X70.569 Y83.493 F2400.000
G1 E2.00000 F2400.00000
G1 F600
G1 X73.106 Y81.650 E2.28514
G1 X74.306 Y80.957 E2.41108
G1 X77.170 Y79.682 E2.69623
G1 X78.487 Y79.254 E2.82214
G1 X81.555 Y78.602 E3.10729
G1 X82.932 Y78.457 E3.23323
G1 X117.068 Y78.457 E6.33718
G1 X118.445 Y78.602 E6.46312
G1 X118.714 Y78.659 E6.48807
G1 X121.513 Y79.254 E6.74827
G1 X122.830 Y79.682 E6.87419
G1 X125.694 Y80.957 E7.15933
G1 X126.894 Y81.650 E7.28527
G1 X129.431 Y83.493 E7.57041
G1 X130.460 Y84.420 E7.69636
G1 X132.559 Y86.750 E7.98150
G1 X133.373 Y87.871 E8.10744
G1 X134.941 Y90.587 E8.39258
G1 X135.504 Y91.852 E8.51852
G1 X136.473 Y94.834 E8.80366
G1 X136.761 Y96.189 E8.92958
G1 X137.089 Y99.307 E9.21473
G1 X137.089 Y100.693 E9.34067
G1 X136.761 Y103.811 E9.62581
G1 X136.473 Y105.166 E9.75174
G1 X135.504 Y108.148 E10.03688
G1 X134.941 Y109.413 E10.16281
G1 X133.510 Y111.892 E10.42300
G1 X133.373 Y112.129 E10.44796
G1 X132.559 Y113.250 E10.57389
G1 X130.460 Y115.580 E10.85904
G1 X129.431 Y116.507 E10.98498
G1 X126.894 Y118.350 E11.27012
G1 X125.695 Y119.043 E11.39606
G1 X122.830 Y120.318 E11.68120
G1 X121.513 Y120.746 E11.80712
G1 X118.445 Y121.398 E12.09227
G1 X117.068 Y121.543 E12.21821
G1 X82.932 Y121.543 E15.32217
G1 X81.555 Y121.398 E15.44811
G1 X78.487 Y120.746 E15.73325
G1 X77.170 Y120.318 E15.85917
G1 X74.306 Y119.043 E16.14431
G1 X73.106 Y118.350 E16.27025
G1 X70.569 Y116.507 E16.55539
G1 X69.540 Y115.580 E16.68134
G1 X67.441 Y113.250 E16.96648
G1 X66.627 Y112.129 E17.09242
G1 X65.059 Y109.413 E17.37756
G1 X64.496 Y108.148 E17.50350
G1 X63.527 Y105.166 E17.78864
G1 X63.239 Y103.811 E17.91456
G1 X62.911 Y100.692 E18.19971
G1 X62.911 Y99.307 E18.32565
G1 X63.239 Y96.189 E18.61079
G1 X63.527 Y94.834 E18.73672
G1 X64.496 Y91.852 E19.02186
G1 X65.059 Y90.587 E19.14779
G1 X66.627 Y87.871 E19.43294
G1 X67.441 Y86.750 E19.55887
G1 X69.540 Y84.420 E19.84402
G1 X70.513 Y83.543 E19.96314
G1 E17.96314 F2400.00000
G92 E0
G1 X99.854 Y88.598 F2400.000
G1 E2.00000 F2400.00000
G1 F600
G1 X100.146 Y88.598 E2.02657
G1 X102.544 Y85.934 E2.35253
G1 X102.865 Y85.645 E2.39183
G1 X105.752 Y83.548 E2.71632
G1 X106.126 Y83.332 E2.75561
G1 X109.386 Y81.881 E3.08009
G1 X109.796 Y81.747 E3.11938
G1 X113.286 Y81.005 E3.44387
G1 X113.716 Y80.960 E3.48316
G1 X117.284 Y80.960 E3.80764
G1 X117.714 Y81.005 E3.84694
G1 X121.204 Y81.747 E4.17143
G1 X121.614 Y81.881 E4.21072
G1 X124.874 Y83.332 E4.53519
G1 X125.248 Y83.548 E4.57449
G1 X128.135 Y85.645 E4.89898
G1 X128.456 Y85.934 E4.93827
G1 X130.843 Y88.586 E5.26276
G1 X131.097 Y88.935 E5.30206
G1 X132.881 Y92.025 E5.62654
G1 X133.057 Y92.420 E5.66583
G1 X134.159 Y95.813 E5.99032
G1 X134.249 Y96.236 E6.02961
G1 X134.622 Y99.784 E6.35409
G1 X134.622 Y100.216 E6.39339
G1 X134.249 Y103.764 E6.71787
G1 X134.159 Y104.187 E6.75716
G1 X133.208 Y107.114 E7.03705
G1 X133.057 Y107.580 E7.08165
G1 X132.881 Y107.975 E7.12094
G1 X131.097 Y111.065 E7.44543
G1 X130.843 Y111.414 E7.48472
G1 X128.456 Y114.066 E7.80920
G1 X128.135 Y114.355 E7.84850
G1 X125.248 Y116.452 E8.17299
G1 X124.874 Y116.668 E8.21228
G1 X121.614 Y118.119 E8.53676
G1 X121.204 Y118.253 E8.57605
G1 X117.714 Y118.995 E8.90054
G1 X117.284 Y119.040 E8.93984
G1 X113.716 Y119.040 E9.26432
G1 X113.286 Y118.995 E9.30361
G1 X109.796 Y118.253 E9.62810
G1 X109.386 Y118.119 E9.66739
G1 X106.126 Y116.668 E9.99187
G1 X105.752 Y116.452 E10.03116
G1 X102.865 Y114.355 E10.35565
G1 X102.544 Y114.066 E10.39495
G1 X100.146 Y111.402 E10.72091
G1 X99.854 Y111.402 E10.74748
G1 X97.456 Y114.066 E11.07344
G1 X97.135 Y114.355 E11.11274
G1 X94.248 Y116.452 E11.43722
G1 X93.874 Y116.668 E11.47652
G1 X90.614 Y118.119 E11.80100
G1 X90.204 Y118.253 E11.84029
G1 X86.714 Y118.995 E12.16477
G1 X86.284 Y119.040 E12.20407
G1 X82.716 Y119.040 E12.52855
G1 X82.286 Y118.995 E12.56785
G1 X78.796 Y118.253 E12.89233
G1 X78.386 Y118.119 E12.93162
G1 X75.126 Y116.668 E13.25610
G1 X74.752 Y116.452 E13.29539
G1 X71.865 Y114.355 E13.61989
G1 X71.544 Y114.066 E13.65918
G1 X69.157 Y111.414 E13.98367
G1 X68.903 Y111.065 E14.02296
G1 X67.364 Y108.400 E14.30285
G1 X67.119 Y107.975 E14.34745
G1 X66.943 Y107.580 E14.38674
G1 X65.841 Y104.187 E14.71122
G1 X65.751 Y103.764 E14.75051
G1 X65.378 Y100.216 E15.07500
G1 X65.378 Y99.784 E15.11429
G1 X65.751 Y96.236 E15.43878
G1 X65.841 Y95.813 E15.47807
G1 X66.943 Y92.420 E15.80255
G1 X67.119 Y92.025 E15.84185
G1 X68.903 Y88.935 E16.16633
G1 X69.157 Y88.586 E16.20562
G1 X71.544 Y85.934 E16.53011
G1 X71.865 Y85.645 E16.56941
G1 X74.752 Y83.548 E16.89390
G1 X75.126 Y83.332 E16.93319
G1 X78.386 Y81.881 E17.25767
G1 X78.796 Y81.747 E17.29696
G1 X82.286 Y81.005 E17.62145
G1 X82.716 Y80.960 E17.66074
G1 X86.284 Y80.960 E17.98523
G1 X86.714 Y81.005 E18.02452
G1 X90.204 Y81.747 E18.34900
G1 X90.614 Y81.881 E18.38829
G1 X93.874 Y83.332 E18.71277
G1 X94.248 Y83.548 E18.75207
G1 X97.135 Y85.645 E19.07656
G1 X97.456 Y85.934 E19.11585
G1 X99.804 Y88.542 E19.43499
G1 X99.357 Y88.979 F2400.000
G1 F600
G1 X99.572 Y89.276 E19.46833
G1 X99.811 Y89.689 E19.51169
G1 X100.189 Y89.689 E19.54615
G1 X100.428 Y89.276 E19.58951
G1 X100.643 Y88.979 E19.62285
G1 X102.987 Y86.377 E19.94138
G1 X103.259 Y86.131 E19.97472
G1 X106.093 Y84.073 E20.29325
G1 X106.410 Y83.889 E20.32658
G1 X109.610 Y82.465 E20.64510
G1 X109.958 Y82.352 E20.67844
G1 X113.384 Y81.624 E20.99697
G1 X113.749 Y81.585 E21.03031
G1 X117.251 Y81.585 E21.34883
G1 X117.616 Y81.624 E21.38216
G1 X121.042 Y82.352 E21.70070
G1 X121.390 Y82.465 E21.73403
G1 X124.590 Y83.889 E22.05255
G1 X124.907 Y84.073 E22.08589
G1 X127.741 Y86.131 E22.40442
G1 X128.013 Y86.377 E22.43775
G1 X130.357 Y88.979 E22.75629
G1 X130.572 Y89.276 E22.78962
G1 X132.323 Y92.309 E23.10815
G1 X132.472 Y92.644 E23.14148
G1 X133.555 Y95.975 E23.46001
G1 X133.631 Y96.334 E23.49334
G1 X133.997 Y99.817 E23.81187
G1 X133.997 Y100.183 E23.84520
G1 X133.631 Y103.666 E24.16373
G1 X133.555 Y104.025 E24.19707
G1 X132.472 Y107.356 E24.51559
G1 X132.323 Y107.691 E24.54893
G1 X130.572 Y110.724 E24.86745
G1 X130.357 Y111.021 E24.90079
G1 X128.013 Y113.623 E25.21932
G1 X127.741 Y113.869 E25.25266
G1 X124.907 Y115.927 E25.57119
G1 X124.590 Y116.111 E25.60452
G1 X121.390 Y117.535 E25.92304
G1 X121.042 Y117.648 E25.95638
G1 X117.616 Y118.376 E26.27491
G1 X117.251 Y118.415 E26.30825
G1 X113.749 Y118.415 E26.62677
G1 X113.384 Y118.376 E26.66010
G1 X109.958 Y117.648 E26.97864
G1 X109.610 Y117.535 E27.01197
G1 X106.410 Y116.111 E27.33049
G1 X106.093 Y115.927 E27.36383
G1 X103.259 Y113.869 E27.68236
G1 X102.987 Y113.623 E27.71569
G1 X100.643 Y111.021 E28.03423
G1 X100.428 Y110.724 E28.06756
G1 X100.189 Y110.311 E28.11092
G1 X99.811 Y110.311 E28.14538
G1 X99.572 Y110.724 E28.18875
G1 X99.357 Y111.021 E28.22208
G1 X97.013 Y113.623 E28.54061
G1 X96.741 Y113.869 E28.57395
G1 X93.907 Y115.927 E28.89248
G1 X93.590 Y116.111 E28.92582
G1 X90.390 Y117.535 E29.24434
G1 X90.042 Y117.648 E29.27767
G1 X86.616 Y118.376 E29.59620
G1 X86.251 Y118.415 E29.62953
G1 X82.749 Y118.415 E29.94806
G1 X82.384 Y118.376 E29.98140
G1 X78.958 Y117.648 E30.29993
G1 X78.610 Y117.535 E30.33326
G1 X75.410 Y116.111 E30.65178
G1 X75.093 Y115.927 E30.68512
G1 X72.259 Y113.869 E31.00365
G1 X71.987 Y113.623 E31.03699
G1 X69.643 Y111.021 E31.35552
G1 X69.428 Y110.724 E31.38885
G1 X67.677 Y107.691 E31.70738
G1 X67.528 Y107.356 E31.74071
G1 X66.445 Y104.025 E32.05924
G1 X66.369 Y103.666 E32.09257
G1 X66.003 Y100.183 E32.41110
G1 X66.003 Y99.817 E32.44444
G1 X66.369 Y96.334 E32.76296
G1 X66.445 Y95.975 E32.79630
G1 X67.528 Y92.644 E33.11482
G1 X67.677 Y92.309 E33.14816
G1 X69.428 Y89.276 E33.46669
G1 X69.643 Y88.979 E33.50002
G1 X71.987 Y86.377 E33.81855
G1 X72.259 Y86.131 E33.85189
G1 X75.093 Y84.073 E34.17042
G1 X75.410 Y83.889 E34.20376
G1 X78.610 Y82.465 E34.52228
G1 X78.958 Y82.352 E34.55561
G1 X82.384 Y81.624 E34.87414
G1 X82.749 Y81.585 E34.90747
G1 X86.251 Y81.585 E35.22600
G1 X86.616 Y81.624 E35.25934
G1 X90.042 Y82.352 E35.57786
G1 X90.390 Y82.465 E35.61120
G1 X93.590 Y83.889 E35.92972
G1 X93.907 Y84.073 E35.96306
G1 X96.741 Y86.131 E36.28159
G1 X97.013 Y86.377 E36.31493
G1 X99.307 Y88.924 E36.62664
G1 X98.870 Y89.373 F2400.000
G1 F600
G1 X99.047 Y89.617 E36.65401
G1 X99.811 Y90.939 E36.79285
G1 X100.189 Y90.939 E36.82731
G1 X100.953 Y89.617 E36.96615
G1 X101.130 Y89.373 E36.99352
G1 X103.429 Y86.819 E37.30610
G1 X103.653 Y86.618 E37.33348
G1 X106.434 Y84.598 E37.64605
G1 X106.694 Y84.447 E37.67343
G1 X109.834 Y83.049 E37.98599
G1 X110.120 Y82.956 E38.01337
G1 X113.482 Y82.242 E38.32594
G1 X113.782 Y82.210 E38.35332
G1 X117.218 Y82.210 E38.66588
G1 X117.518 Y82.242 E38.69326
G1 X120.880 Y82.956 E39.00584
G1 X121.166 Y83.049 E39.03321
G1 X124.306 Y84.447 E39.34577
G1 X124.566 Y84.598 E39.37315
G1 X127.347 Y86.618 E39.68573
G1 X127.571 Y86.819 E39.71310
G1 X129.870 Y89.373 E40.02568
G1 X130.047 Y89.617 E40.05305
G1 X131.766 Y92.593 E40.36562
G1 X131.888 Y92.868 E40.39300
G1 X132.950 Y96.137 E40.70557
G1 X133.013 Y96.431 E40.73294
G1 X133.372 Y99.849 E41.04551
G1 X133.372 Y100.151 E41.07289
G1 X133.013 Y103.569 E41.38546
G1 X132.950 Y103.863 E41.41284
G1 X131.888 Y107.132 E41.72541
G1 X131.766 Y107.407 E41.75278
G1 X130.047 Y110.383 E42.06535
G1 X129.870 Y110.627 E42.09273
G1 X127.571 Y113.181 E42.40530
G1 X127.347 Y113.382 E42.43268
G1 X124.566 Y115.402 E42.74525
G1 X124.306 Y115.553 E42.77263
G1 X121.166 Y116.951 E43.08519
G1 X120.880 Y117.044 E43.11257
G1 X117.518 Y117.758 E43.42515
G1 X117.218 Y117.790 E43.45252
G1 X113.782 Y117.790 E43.76509
G1 X113.482 Y117.758 E43.79247
G1 X110.120 Y117.044 E44.10504
G1 X109.834 Y116.951 E44.13242
G1 X106.694 Y115.553 E44.44498
G1 X106.434 Y115.402 E44.47236
G1 X103.653 Y113.382 E44.78493
G1 X103.429 Y113.181 E44.81231
G1 X101.130 Y110.627 E45.12488
G1 X100.953 Y110.383 E45.15226
G1 X100.189 Y109.061 E45.29110
G1 X99.811 Y109.061 E45.32556
G1 X99.047 Y110.383 E45.46439
G1 X98.870 Y110.627 E45.49177
G1 X96.571 Y113.181 E45.80434
G1 X96.347 Y113.382 E45.83172
G1 X93.566 Y115.402 E46.14430
G1 X93.306 Y115.553 E46.17167
G1 X90.166 Y116.951 E46.48424
G1 X89.880 Y117.044 E46.51162
G1 X86.518 Y117.758 E46.82418
G1 X86.218 Y117.790 E46.85156
G1 X82.782 Y117.790 E47.16413
G1 X82.482 Y117.758 E47.19151
G1 X79.120 Y117.044 E47.50408
G1 X78.834 Y116.951 E47.53145
G1 X75.694 Y115.553 E47.84402
G1 X75.434 Y115.402 E47.87140
G1 X72.653 Y113.382 E48.18397
G1 X72.429 Y113.181 E48.21135
G1 X70.130 Y110.627 E48.52392
G1 X69.953 Y110.383 E48.55130
G1 X68.447 Y107.775 E48.82523
G1 X68.234 Y107.407 E48.86387
G1 X68.112 Y107.132 E48.89125
G1 X67.050 Y103.863 E49.20381
G1 X66.987 Y103.569 E49.23119
G1 X66.628 Y100.151 E49.54376
G1 X66.628 Y99.849 E49.57114
G1 X66.987 Y96.431 E49.88371
G1 X67.050 Y96.137 E49.91108
G1 X68.112 Y92.868 E50.22365
G1 X68.234 Y92.593 E50.25103
G1 X69.953 Y89.617 E50.56360
G1 X70.130 Y89.373 E50.59098
G1 X72.429 Y86.819 E50.90355
G1 X72.653 Y86.618 E50.93093
G1 X75.434 Y84.598 E51.24350
G1 X75.694 Y84.447 E51.27088
G1 X78.834 Y83.049 E51.58345
G1 X79.120 Y82.956 E51.61082
G1 X82.482 Y82.242 E51.92339
G1 X82.782 Y82.210 E51.95077
G1 X86.218 Y82.210 E52.26334
G1 X86.518 Y82.242 E52.29071
G1 X89.880 Y82.956 E52.60328
G1 X90.166 Y83.049 E52.63066
G1 X93.306 Y84.447 E52.94322
G1 X93.566 Y84.598 E52.97060
G1 X96.347 Y86.618 E53.28318
G1 X96.571 Y86.819 E53.31055
G1 X98.820 Y89.318 E53.61631
G1 X98.384 Y89.767 F2400.000
G1 F600
G1 X98.522 Y89.958 E53.63773
G1 X99.811 Y92.189 E53.87204
G1 X100.189 Y92.189 E53.90650
G1 X101.478 Y89.958 E54.14081
G1 X101.616 Y89.767 E54.16223
G1 X103.872 Y87.262 E54.46884
G1 X104.047 Y87.104 E54.49026
G1 X106.775 Y85.123 E54.79688
G1 X106.979 Y85.005 E54.81830
G1 X110.058 Y83.634 E55.12490
G1 X110.282 Y83.561 E55.14632
G1 X113.580 Y82.860 E55.45294
G1 X113.814 Y82.835 E55.47436
G1 X117.186 Y82.835 E55.78097
G1 X117.420 Y82.860 E55.80239
G1 X120.718 Y83.561 E56.10900
G1 X120.942 Y83.634 E56.13042
G1 X124.021 Y85.005 E56.43703
G1 X124.225 Y85.123 E56.45845
G1 X126.953 Y87.104 E56.76506
G1 X127.128 Y87.262 E56.78648
G1 X129.384 Y89.767 E57.09310
G1 X129.522 Y89.958 E57.11452
G1 X131.208 Y92.877 E57.42113
G1 X131.304 Y93.093 E57.44255
G1 X132.346 Y96.299 E57.74916
G1 X132.395 Y96.529 E57.77058
G1 X132.747 Y99.882 E58.07719
G1 X132.747 Y100.118 E58.09861
G1 X132.395 Y103.471 E58.40522
G1 X132.346 Y103.701 E58.42664
G1 X131.304 Y106.907 E58.73325
G1 X131.208 Y107.123 E58.75467
G1 X129.522 Y110.042 E59.06128
G1 X129.384 Y110.233 E59.08270
G1 X127.128 Y112.738 E59.38931
G1 X126.953 Y112.896 E59.41073
G1 X124.225 Y114.877 E59.71735
G1 X124.021 Y114.995 E59.73877
G1 X120.942 Y116.366 E60.04537
G1 X120.718 Y116.439 E60.06679
G1 X117.420 Y117.140 E60.37341
G1 X117.186 Y117.165 E60.39483
G1 X113.814 Y117.165 E60.70144
G1 X113.580 Y117.140 E60.72286
G1 X110.282 Y116.439 E61.02947
G1 X110.058 Y116.366 E61.05089
G1 X106.979 Y114.995 E61.35750
G1 X106.775 Y114.877 E61.37892
G1 X104.047 Y112.896 E61.68553
G1 X103.872 Y112.738 E61.70695
G1 X101.616 Y110.233 E62.01357
G1 X101.478 Y110.042 E62.03499
G1 X100.189 Y107.811 E62.26930
G1 X99.811 Y107.811 E62.30376
G1 X98.522 Y110.042 E62.53807
G1 X98.384 Y110.233 E62.55949
G1 X96.128 Y112.738 E62.86610
G1 X95.953 Y112.896 E62.88752
G1 X93.225 Y114.877 E63.19414
G1 X93.021 Y114.995 E63.21556
G1 X89.942 Y116.366 E63.52217
G1 X89.718 Y116.439 E63.54359
G1 X86.420 Y117.140 E63.85020
G1 X86.186 Y117.165 E63.87162
G1 X82.814 Y117.165 E64.17823
G1 X82.580 Y117.140 E64.19965
G1 X79.282 Y116.439 E64.50626
G1 X79.058 Y116.366 E64.52768
G1 X75.979 Y114.995 E64.83429
G1 X75.775 Y114.877 E64.85571
G1 X73.047 Y112.896 E65.16232
G1 X72.872 Y112.738 E65.18374
G1 X70.616 Y110.233 E65.49036
G1 X70.478 Y110.042 E65.51178
G1 X68.792 Y107.123 E65.81839
G1 X68.696 Y106.907 E65.83981
G1 X67.654 Y103.701 E66.14642
G1 X67.605 Y103.471 E66.16784
G1 X67.253 Y100.118 E66.47445
G1 X67.253 Y99.882 E66.49587
G1 X67.605 Y96.529 E66.80248
G1 X67.654 Y96.299 E66.82390
G1 X68.696 Y93.093 E67.13051
G1 X68.792 Y92.877 E67.15193
G1 X70.478 Y89.958 E67.45854
G1 X70.616 Y89.767 E67.47996
G1 X72.872 Y87.262 E67.78657
G1 X73.047 Y87.104 E67.80799
G1 X75.775 Y85.123 E68.11461
G1 X75.979 Y85.005 E68.13603
G1 X79.058 Y83.634 E68.44264
G1 X79.282 Y83.561 E68.46406
G1 X82.580 Y82.860 E68.77067
G1 X82.814 Y82.835 E68.79209
G1 X86.186 Y82.835 E69.09870
G1 X86.420 Y82.860 E69.12012
G1 X89.718 Y83.561 E69.42673
G1 X89.942 Y83.634 E69.44815
G1 X93.021 Y85.005 E69.75476
G1 X93.225 Y85.123 E69.77618
G1 X95.953 Y87.104 E70.08279
G1 X96.128 Y87.262 E70.10421
G1 X98.334 Y89.711 E70.40401
G1 E68.40401 F2400.00000
G92 E0
G1 X99.787 Y93.468 F2400.000
G1 E2.00000 F2400.00000
G1 F600
G1 X100.213 Y93.468 E2.03876
G1 X100.350 Y93.162 E2.06929
G1 X102.003 Y90.299 E2.36994
G1 X102.102 Y90.161 E2.38540
G1 X104.314 Y87.704 E2.68606
G1 X104.441 Y87.591 E2.70152
G1 X107.115 Y85.647 E3.00218
G1 X107.263 Y85.562 E3.01764
G1 X110.283 Y84.218 E3.31829
G1 X110.444 Y84.165 E3.33375
G1 X113.678 Y83.478 E3.63441
G1 X113.847 Y83.460 E3.64987
G1 X117.153 Y83.460 E3.95052
G1 X117.322 Y83.478 E3.96598
G1 X120.556 Y84.165 E4.26664
G1 X120.717 Y84.218 E4.28210
G1 X123.737 Y85.562 E4.58275
G1 X123.885 Y85.647 E4.59821
G1 X126.559 Y87.591 E4.89887
G1 X126.685 Y87.704 E4.91433
G1 X128.898 Y90.161 E5.21499
G1 X128.997 Y90.299 E5.23045
G1 X130.650 Y93.162 E5.53110
G1 X130.720 Y93.317 E5.54656
G1 X131.741 Y96.461 E5.84721
G1 X131.776 Y96.627 E5.86268
G1 X132.122 Y99.915 E6.16333
G1 X132.122 Y100.085 E6.17879
