; generated by Slic3r 1.3.0 on 2019-02-16 at 23:51:42

; external perimeters extrusion width = 0.55mm (4.37mm^3/s)
; perimeters extrusion width = 0.70mm (11.44mm^3/s)
; infill extrusion width = 0.62mm (13.45mm^3/s)
; solid infill extrusion width = 0.70mm (3.81mm^3/s)
; top infill extrusion width = 0.70mm (2.86mm^3/s)

M107
M190 S60 ; set bed temperature and wait for it to be reached
M104 S200 ; set temperature
G28 ; home all axes
G1 Z5 F5000 ; lift nozzle

; Filament gcode

M109 S200 ; set temperature and wait for it to be reached
G21 ; set units to millimeters
G90 ; use absolute coordinates
M82 ; use absolute distances for extrusion
G92 E0
G1 Z0.350 F2400.000
G1 E-2.00000 F2400.00000
G92 E0
G1 X73.915 Y46.253 F2400.000
G1 E2.00000 F2400.00000
G1 F600
G1 X75.489 Y44.882 E2.18976
G1 X91.489 Y34.882 E3.90541
G1 X93.615 Y34.022 E4.11395
G1 X95.000 Y33.875 E4.24062
G1 X105.000 Y33.875 E5.14992
G1 X107.259 Y34.272 E5.35846
G1 X108.511 Y34.882 E5.48513
G1 X124.511 Y44.882 E7.20078
G1 X126.216 Y46.416 E7.40932
G1 X127.296 Y48.439 E7.61787
G1 X127.625 Y50.500 E7.80762
G1 X127.625 Y159.500 E17.71895
G1 X127.228 Y161.759 E17.92749
G1 X126.085 Y163.747 E18.13603
G1 X124.332 Y165.226 E18.34457
G1 X122.180 Y166.019 E18.55312
G1 X121.000 Y166.125 E18.66083
G1 X79.000 Y166.125 E22.47987
G1 X76.741 Y165.728 E22.68841
G1 X74.753 Y164.585 E22.89695
G1 X73.274 Y162.832 E23.10550
G1 X72.481 Y160.680 E23.31404
G1 X72.375 Y159.500 E23.42175
G1 X72.375 Y50.500 E33.33307
G1 X72.772 Y48.241 E33.54161
G1 X73.878 Y46.318 E33.74334
G1 E31.74334 F2400.00000
G92 E0
G1 X90.686 Y46.378 F2400.000
G1 E2.00000 F2400.00000
G1 F600
G1 X90.878 Y46.186 E2.02472
G1 X90.878 Y38.793 E2.69710
G1 X93.293 Y36.378 E3.00766
G1 X106.707 Y36.378 E4.22767
G1 X109.122 Y38.793 E4.53823
G1 X109.122 Y46.186 E5.21061
G1 X109.314 Y46.378 E5.23533
G1 X122.707 Y46.378 E6.45338
G1 X125.122 Y48.793 E6.76394
G1 X125.122 Y161.207 E16.98758
G1 X122.707 Y163.622 E17.29814
G1 X109.293 Y163.622 E18.51815
G1 X106.878 Y161.207 E18.82871
G1 X106.878 Y153.814 E19.50109
G1 X106.686 Y153.622 E19.52581
G1 X93.314 Y153.622 E20.74190
G1 X93.122 Y153.814 E20.76662
G1 X93.122 Y161.207 E21.43900
G1 X90.707 Y163.622 E21.74956
G1 X77.293 Y163.622 E22.96957
G1 X74.878 Y161.207 E23.28013
G1 X74.878 Y48.793 E33.50377
G1 X77.293 Y46.378 E33.81432
G1 X90.611 Y46.378 E35.02556
G1 X91.311 Y47.003 F2400.000
G1 F600
G1 X91.503 Y46.811 E35.05028
G1 X91.503 Y39.052 E35.75595
G1 X93.552 Y37.003 E36.01942
G1 X106.448 Y37.003 E37.19235
G1 X108.497 Y39.052 E37.45582
G1 X108.497 Y46.811 E38.16149
G1 X108.689 Y47.003 E38.18621
G1 X122.448 Y47.003 E39.43756
G1 X124.497 Y49.052 E39.70103
G1 X124.497 Y160.948 E49.87758
G1 X122.448 Y162.997 E50.14105
G1 X109.552 Y162.997 E51.31398
G1 X107.503 Y160.948 E51.57745
G1 X107.503 Y153.189 E52.28312
G1 X107.311 Y152.997 E52.30784
G1 X92.689 Y152.997 E53.63762
G1 X92.497 Y153.189 E53.66234
G1 X92.497 Y160.948 E54.36801
G1 X90.448 Y162.997 E54.63148
G1 X77.552 Y162.997 E55.80441
G1 X75.503 Y160.948 E56.06788
G1 X75.503 Y49.052 E66.24442
G1 X77.552 Y47.003 E66.50789
G1 X91.236 Y47.003 E67.75242
G1 X91.936 Y47.628 F2400.000
G1 F600
G1 X92.128 Y47.436 E67.77714
G1 X92.128 Y39.310 E68.51612
G1 X93.810 Y37.628 E68.73250
G1 X106.190 Y37.628 E69.85833
G1 X107.872 Y39.310 E70.07471
G1 X107.872 Y47.436 E70.81369
G1 X108.064 Y47.628 E70.83841
G1 X122.190 Y47.628 E72.12305
G1 X123.872 Y49.310 E72.33943
G1 X123.872 Y160.690 E82.46889
G1 X122.190 Y162.372 E82.68528
G1 X109.810 Y162.372 E83.81111
G1 X108.128 Y160.690 E84.02749
G1 X108.128 Y152.564 E84.76647
G1 X107.936 Y152.372 E84.79119
G1 X92.064 Y152.372 E86.23464
G1 X91.872 Y152.564 E86.25936
G1 X91.872 Y160.690 E86.99833
G1 X90.190 Y162.372 E87.21471
G1 X77.810 Y162.372 E88.34055
G1 X76.128 Y160.690 E88.55693
G1 X76.128 Y49.310 E98.68639
G1 X77.810 Y47.628 E98.90277
G1 X91.861 Y47.628 E100.18060
G1 X92.561 Y48.253 F2400.000
G1 F600
G1 X92.753 Y48.061 E100.20532
G1 X92.753 Y39.569 E100.97759
G1 X94.069 Y38.253 E101.14688
G1 X105.931 Y38.253 E102.22563
G1 X107.247 Y39.569 E102.39492
G1 X107.247 Y48.061 E103.16719
G1 X107.439 Y48.253 E103.19191
G1 X121.931 Y48.253 E104.50985
G1 X123.247 Y49.569 E104.67915
G1 X123.247 Y160.431 E114.76152
G1 X121.931 Y161.747 E114.93081
G1 X110.069 Y161.747 E116.00956
G1 X108.753 Y160.431 E116.17885
G1 X108.753 Y151.939 E116.95112
G1 X108.561 Y151.747 E116.97584
G1 X91.439 Y151.747 E118.53298
G1 X91.247 Y151.939 E118.55770
G1 X91.247 Y160.431 E119.32997
G1 X89.931 Y161.747 E119.49926
G1 X78.069 Y161.747 E120.57801
G1 X76.753 Y160.431 E120.74730
G1 X76.753 Y49.569 E130.82967
G1 X78.069 Y48.253 E130.99896
G1 X92.486 Y48.253 E132.31008
G1 X93.186 Y48.878 F2400.000
G1 F600
G1 X93.378 Y48.686 E132.33481
G1 X93.378 Y39.828 E133.14037
G1 X94.328 Y38.878 E133.26257
G1 X105.672 Y38.878 E134.29423
G1 X106.622 Y39.828 E134.41644
G1 X106.622 Y48.686 E135.22200
G1 X106.814 Y48.878 E135.24672
G1 X121.672 Y48.878 E136.59796
G1 X122.622 Y49.828 E136.72017
G1 X122.622 Y160.172 E146.75545
G1 X121.672 Y161.122 E146.87765
G1 X110.328 Y161.122 E147.90931
G1 X109.378 Y160.172 E148.03152
G1 X109.378 Y151.314 E148.83708
G1 X109.186 Y151.122 E148.86180
G1 X90.814 Y151.122 E150.53262
G1 X90.622 Y151.314 E150.55734
G1 X90.622 Y160.172 E151.36291
G1 X89.672 Y161.122 E151.48511
G1 X78.328 Y161.122 E152.51677
G1 X77.378 Y160.172 E152.63897
G1 X77.378 Y49.828 E162.67426
G1 X78.328 Y48.878 E162.79646
G1 X93.111 Y48.878 E164.14088
G1 X93.811 Y49.503 F2400.000
G1 F600
G1 X94.003 Y49.311 E164.16560
G1 X94.003 Y40.087 E165.00446
G1 X94.587 Y39.503 E165.07958
G1 X105.413 Y39.503 E166.06415
G1 X105.997 Y40.087 E166.13926
G1 X105.997 Y49.311 E166.97813
G1 X106.189 Y49.503 E167.00285
G1 X121.413 Y49.503 E168.38738
G1 X121.997 Y50.087 E168.46250
G1 X121.997 Y159.913 E178.45069
G1 X121.413 Y160.497 E178.52581
G1 X110.587 Y160.497 E179.51038
G1 X110.003 Y159.913 E179.58549
G1 X110.003 Y150.689 E180.42435
G1 X109.811 Y150.497 E180.44908
G1 X90.189 Y150.497 E182.23358
G1 X89.997 Y150.689 E182.25830
G1 X89.997 Y159.913 E183.09716
G1 X89.413 Y160.497 E183.17227
G1 X78.587 Y160.497 E184.15685
G1 X78.003 Y159.913 E184.23196
G1 X78.003 Y50.087 E194.22015
G1 X78.587 Y49.503 E194.29527
G1 X93.736 Y49.503 E195.67298
G1 X94.436 Y50.128 F2400.000
G1 F600
G1 X94.628 Y49.936 E195.69771
G1 X94.628 Y40.346 E196.56986
G1 X94.846 Y40.128 E196.59789
G1 X105.154 Y40.128 E197.53537
G1 X105.372 Y40.346 E197.56340
G1 X105.372 Y49.936 E198.43556
G1 X105.564 Y50.128 E198.46028
G1 X121.154 Y50.128 E199.87811
G1 X121.372 Y50.346 E199.90614
G1 X121.372 Y159.654 E209.84724
G1 X121.154 Y159.872 E209.87527
G1 X110.846 Y159.872 E210.81275
G1 X110.628 Y159.654 E210.84078
G1 X110.628 Y150.064 E211.71294
G1 X110.436 Y149.872 E211.73766
G1 X89.564 Y149.872 E213.63584
G1 X89.372 Y150.064 E213.66056
G1 X89.372 Y159.654 E214.53272
G1 X89.154 Y159.872 E214.56075
G1 X78.846 Y159.872 E215.49823
G1 X78.628 Y159.654 E215.52626
G1 X78.628 Y50.346 E225.46736
G1 X78.846 Y50.128 E225.49539
G1 X94.361 Y50.128 E226.90640
G1 E224.90640 F2400.00000
G92 E0
G1 X104.650 Y50.850 F2400.000
G1 E2.00000 F2400.00000
G1 F600
G1 X120.650 Y50.850 E3.45487
G1 X120.650 Y159.150 E13.30255
G1 X111.350 Y159.150 E14.14819
G1 X111.350 Y149.150 E15.05749
G1 X88.650 Y149.150 E17.12159
G1 X88.650 Y159.150 E18.03088
G1 X79.350 Y159.150 E18.87653
G1 X79.350 Y50.850 E28.72420
G1 X95.350 Y50.850 E30.17908
G1 X95.350 Y40.850 E31.08837
G1 X104.650 Y40.850 E31.93402
G1 X104.650 Y50.775 E32.83649
G1 X104.774 Y51.334 F2400.000
G1 X104.025 Y51.475 F2400.000
G1 F600
G1 X120.025 Y51.475 E34.29137
G1 X120.025 Y158.525 E44.02540
G1 X111.975 Y158.525 E44.75740
G1 X111.975 Y148.525 E45.66670
G1 X88.025 Y148.525 E47.84444
G1 X88.025 Y158.525 E48.75374
G1 X79.975 Y158.525 E49.48574
G1 X79.975 Y51.475 E59.21977
G1 X95.975 Y51.475 E60.67465
G1 X95.975 Y41.475 E61.58394
G1 X104.025 Y41.475 E62.31594
G1 X104.025 Y51.400 E63.21842
G1 E61.21842 F2400.00000
G92 E0
G1 X115.291 Y109.738 F2400.000
G1 E2.00000 F2400.00000
G1 F600
G1 X115.823 Y109.655 E2.04893
G1 X116.179 Y109.655 E2.08133
G1 X116.540 Y109.701 E2.11438
G1 X117.050 Y109.849 E2.16267
G1 X117.528 Y110.092 E2.21148
G1 X117.952 Y110.421 E2.26028
G1 X118.307 Y110.824 E2.30908
G1 X118.580 Y111.286 E2.35789
G1 X118.762 Y111.791 E2.40669
G1 X118.846 Y112.321 E2.45549
G1 X118.829 Y112.857 E2.50429
G1 X118.712 Y113.381 E2.55309
G1 X118.499 Y113.874 E2.60190
G1 X118.197 Y114.318 E2.65070
G1 X117.818 Y114.697 E2.69950
G1 X117.378 Y114.996 E2.74781
G1 X117.049 Y115.150 E2.78086
G1 X116.704 Y115.263 E2.81391
G1 X116.179 Y115.346 E2.86221
G1 X115.643 Y115.329 E2.91102
G1 X115.119 Y115.212 E2.95982
G1 X114.626 Y114.999 E3.00862
G1 X114.182 Y114.697 E3.05743
G1 X113.803 Y114.318 E3.10623
G1 X113.504 Y113.878 E3.15453
G1 X113.350 Y113.549 E3.18758
G1 X113.237 Y113.204 E3.22064
G1 X113.154 Y112.679 E3.26894
G1 X113.171 Y112.148 E3.31724
G1 X113.239 Y111.791 E3.35028
G1 X113.349 Y111.452 E3.38269
G1 X113.592 Y110.972 E3.43162
G1 X113.921 Y110.548 E3.48045
G1 X114.324 Y110.193 E3.52924
G1 X114.786 Y109.920 E3.57806
G1 X115.221 Y109.763 E3.62007
G1 X115.426 Y109.256 F2400.000
G1 X115.079 Y109.150 F2400.000
G1 F600
G1 X115.774 Y109.030 E3.68419
G1 X116.219 Y109.030 E3.72460
G1 X116.667 Y109.087 E3.76568
G1 X117.281 Y109.265 E3.82380
G1 X117.864 Y109.562 E3.88335
G1 X118.382 Y109.964 E3.94290
G1 X118.815 Y110.455 E4.00243
G1 X119.148 Y111.019 E4.06198
G1 X119.370 Y111.635 E4.12153
G1 X119.472 Y112.282 E4.18107
G1 X119.452 Y112.936 E4.24062
G1 X119.309 Y113.575 E4.30016
G1 X119.049 Y114.176 E4.35970
G1 X118.681 Y114.718 E4.41926
G1 X118.218 Y115.181 E4.47880
G1 X117.689 Y115.540 E4.53696
G1 X117.280 Y115.733 E4.57804
G1 X116.850 Y115.872 E4.61914
G1 X116.218 Y115.972 E4.67729
G1 X115.564 Y115.952 E4.73684
G1 X114.925 Y115.809 E4.79638
G1 X114.324 Y115.549 E4.85592
G1 X113.782 Y115.181 E4.91547
G1 X113.319 Y114.718 E4.97502
G1 X112.960 Y114.189 E5.03317
G1 X112.767 Y113.780 E5.07426
G1 X112.628 Y113.350 E5.11536
G1 X112.528 Y112.718 E5.17351
G1 X112.548 Y112.079 E5.23164
G1 X112.632 Y111.636 E5.27272
G1 X112.769 Y111.213 E5.31312
G1 X113.062 Y110.636 E5.37191
G1 X113.464 Y110.118 E5.43154
G1 X113.955 Y109.685 E5.49107
G1 X114.519 Y109.352 E5.55063
G1 X115.009 Y109.175 E5.59801
G1 E3.59801 F2400.00000
G92 E0
G1 X115.672 Y90.330 F2400.000
G1 E2.00000 F2400.00000
G1 F600
G1 X115.119 Y90.212 E2.05140
G1 X114.626 Y89.999 E2.10021
G1 X114.182 Y89.697 E2.14901
G1 X113.803 Y89.318 E2.19782
G1 X113.504 Y88.878 E2.24612
G1 X113.350 Y88.549 E2.27917
G1 X113.237 Y88.204 E2.31222
G1 X113.154 Y87.679 E2.36052
G1 X113.171 Y87.148 E2.40882
G1 X113.239 Y86.791 E2.44188
G1 X113.351 Y86.445 E2.47494
G1 X113.592 Y85.972 E2.52324
G1 X113.921 Y85.548 E2.57204
G1 X114.324 Y85.193 E2.62083
G1 X114.786 Y84.920 E2.66965
G1 X115.291 Y84.738 E2.71848
G1 X115.823 Y84.655 E2.76740
G1 X116.179 Y84.655 E2.79981
G1 X116.540 Y84.701 E2.83286
G1 X117.050 Y84.849 E2.88115
G1 X117.528 Y85.092 E2.92995
G1 X117.952 Y85.421 E2.97876
G1 X118.307 Y85.824 E3.02755
G1 X118.580 Y86.286 E3.07636
G1 X118.762 Y86.791 E3.12517
G1 X118.846 Y87.321 E3.17397
G1 X118.829 Y87.857 E3.22277
G1 X118.712 Y88.381 E3.27157
G1 X118.499 Y88.874 E3.32037
G1 X118.197 Y89.318 E3.36918
G1 X117.818 Y89.697 E3.41798
G1 X117.378 Y89.996 E3.46629
G1 X117.049 Y90.150 E3.49934
G1 X116.704 Y90.263 E3.53239
G1 X116.179 Y90.346 E3.58069
G1 X115.747 Y90.332 E3.62003
G1 X115.657 Y90.355 F2400.000
G1 X115.652 Y90.955 F2400.000
G1 F600
G1 X115.564 Y90.952 E3.62805
G1 X114.925 Y90.809 E3.68758
G1 X114.324 Y90.549 E3.74712
G1 X113.782 Y90.181 E3.80668
G1 X113.319 Y89.718 E3.86622
G1 X112.960 Y89.189 E3.92438
G1 X112.767 Y88.780 E3.96547
G1 X112.628 Y88.350 E4.00656
G1 X112.528 Y87.718 E4.06471
G1 X112.548 Y87.079 E4.12285
G1 X112.632 Y86.635 E4.16396
G1 X112.772 Y86.205 E4.20507
G1 X113.062 Y85.636 E4.26320
G1 X113.464 Y85.118 E4.32275
G1 X113.955 Y84.685 E4.38229
G1 X114.519 Y84.352 E4.44184
G1 X115.136 Y84.130 E4.50146
G1 X115.774 Y84.030 E4.56026
G1 X116.219 Y84.030 E4.60066
G1 X116.667 Y84.087 E4.64174
G1 X117.281 Y84.265 E4.69987
G1 X117.864 Y84.562 E4.75941
G1 X118.382 Y84.964 E4.81896
G1 X118.815 Y85.455 E4.87850
G1 X119.148 Y86.019 E4.93805
G1 X119.370 Y86.635 E4.99759
G1 X119.472 Y87.282 E5.05714
G1 X119.452 Y87.936 E5.11669
G1 X119.309 Y88.575 E5.17622
G1 X119.049 Y89.176 E5.23576
G1 X118.681 Y89.718 E5.29532
G1 X118.218 Y90.181 E5.35486
G1 X117.689 Y90.540 E5.41302
G1 X117.280 Y90.733 E5.45411
G1 X116.850 Y90.872 E5.49520
G1 X116.218 Y90.972 E5.55335
G1 X115.727 Y90.957 E5.59806
G1 E3.59806 F2400.00000
G92 E0
G1 X119.400 Y53.174 F2400.000
G1 E2.00000 F2400.00000
G1 F600
G1 X118.811 Y52.506 E2.08096
G1 X118.614 Y52.353 E2.10366
G1 X118.701 Y52.100 E2.12802
G1 X119.400 Y52.100 E2.19160
G1 X119.400 Y53.099 E2.28247
G1 X118.307 Y53.824 F2400.000
G1 F600
G1 X118.580 Y54.286 E2.33128
G1 X118.762 Y54.791 E2.38008
G1 X118.846 Y55.321 E2.42888
G1 X118.829 Y55.857 E2.47769
G1 X118.712 Y56.381 E2.52649
G1 X118.499 Y56.874 E2.57529
G1 X118.197 Y57.318 E2.62410
G1 X117.817 Y57.697 E2.67293
G1 X117.372 Y57.999 E2.72187
G1 X117.049 Y58.151 E2.75426
G1 X116.704 Y58.263 E2.78730
G1 X116.179 Y58.346 E2.83560
G1 X115.643 Y58.329 E2.88441
G1 X115.119 Y58.212 E2.93321
G1 X114.626 Y57.999 E2.98201
G1 X114.182 Y57.697 E3.03082
G1 X113.803 Y57.318 E3.07962
G1 X113.504 Y56.878 E3.12792
G1 X113.350 Y56.549 E3.16097
G1 X113.237 Y56.204 E3.19403
G1 X113.154 Y55.679 E3.24233
G1 X113.171 Y55.148 E3.29063
G1 X113.239 Y54.791 E3.32368
G1 X113.351 Y54.445 E3.35674
G1 X113.592 Y53.972 E3.40504
G1 X113.921 Y53.548 E3.45384
G1 X114.324 Y53.193 E3.50264
G1 X114.786 Y52.920 E3.55145
G1 X115.291 Y52.738 E3.60028
G1 X115.823 Y52.655 E3.64921
G1 X116.179 Y52.655 E3.68162
G1 X116.540 Y52.701 E3.71466
G1 X117.050 Y52.849 E3.76295
G1 X117.528 Y53.092 E3.81176
G1 X117.952 Y53.421 E3.86056
G1 X118.257 Y53.768 E3.90254
G1 X118.307 Y53.824 F2400.000
G1 X118.776 Y53.411 F2400.000
G1 F600
G1 X119.148 Y54.019 E3.96737
G1 X119.370 Y54.635 E4.02692
G1 X119.472 Y55.282 E4.08646
G1 X119.452 Y55.936 E4.14601
G1 X119.309 Y56.575 E4.20554
G1 X119.049 Y57.176 E4.26509
G1 X118.681 Y57.718 E4.32464
G1 X118.217 Y58.181 E4.38427
G1 X117.682 Y58.544 E4.44307
G1 X117.280 Y58.733 E4.48346
G1 X116.850 Y58.872 E4.52452
G1 X116.218 Y58.972 E4.58267
G1 X115.564 Y58.952 E4.64222
G1 X114.925 Y58.809 E4.70176
G1 X114.324 Y58.549 E4.76130
G1 X113.782 Y58.181 E4.82086
G1 X113.319 Y57.718 E4.88040
G1 X112.960 Y57.189 E4.93855
G1 X112.767 Y56.780 E4.97964
G1 X112.628 Y56.350 E5.02074
G1 X112.528 Y55.718 E5.07889
G1 X112.548 Y55.079 E5.13702
G1 X112.632 Y54.635 E5.17813
G1 X112.772 Y54.205 E5.21924
G1 X113.062 Y53.636 E5.27737
G1 X113.464 Y53.118 E5.33693
G1 X113.955 Y52.685 E5.39646
G1 X114.519 Y52.352 E5.45601
G1 X115.136 Y52.130 E5.51564
G1 X115.774 Y52.030 E5.57443
G1 X116.219 Y52.030 E5.61484
G1 X116.667 Y52.087 E5.65591
G1 X117.281 Y52.265 E5.71404
G1 X117.864 Y52.562 E5.77358
G1 X118.382 Y52.964 E5.83314
G1 X118.726 Y53.354 E5.88048
G1 E3.88048 F2400.00000
G92 E0
G1 X103.400 Y43.653 F2400.000
G1 E2.00000 F2400.00000
G1 F600
G1 X103.124 Y43.728 E2.02602
G1 X102.918 Y43.379 E2.06291
G1 X102.469 Y42.871 E2.12455
G1 X101.933 Y42.455 E2.18624
G1 X101.801 Y42.387 E2.19973
G1 X101.870 Y42.100 E2.22661
G1 X103.400 Y42.100 E2.36574
G1 X103.400 Y43.578 E2.50012
G1 X102.087 Y44.430 F2400.000
G1 F600
G1 X102.128 Y44.498 E2.50740
G1 X102.278 Y44.916 E2.54771
G1 X102.347 Y45.352 E2.58787
G1 X102.333 Y45.795 E2.62820
G1 X102.236 Y46.227 E2.66840
G1 X102.061 Y46.633 E2.70869
G1 X101.812 Y46.999 E2.74893
G1 X101.499 Y47.312 E2.78920
G1 X101.127 Y47.563 E2.82996
G1 X100.865 Y47.686 E2.85631
G1 X100.579 Y47.778 E2.88361
G1 X100.153 Y47.846 E2.92281
G1 X99.853 Y47.846 E2.95013
G1 X99.554 Y47.809 E2.97747
G1 X99.134 Y47.687 E3.01724
G1 X98.740 Y47.486 E3.05751
G1 X98.390 Y47.214 E3.09776
G1 X98.098 Y46.883 E3.13796
G1 X97.872 Y46.502 E3.17823
G1 X97.722 Y46.084 E3.21854
G1 X97.653 Y45.648 E3.25871
G1 X97.667 Y45.205 E3.29903
G1 X97.764 Y44.773 E3.33923
G1 X97.937 Y44.372 E3.37902
G1 X98.098 Y44.118 E3.40639
G1 X98.290 Y43.887 E3.43369
