; generated by Slic3r 1.3.0 on 2019-02-23 at 01:51:43

; external perimeters extrusion width = 0.55mm (4.37mm^3/s)
; perimeters extrusion width = 0.70mm (11.44mm^3/s)
; infill extrusion width = 0.62mm (13.45mm^3/s)
; solid infill extrusion width = 0.70mm (3.81mm^3/s)
; top infill extrusion width = 0.70mm (2.86mm^3/s)
; support material extrusion width = 0.55mm (8.74mm^3/s)

M107
M190 S60 ; set bed temperature and wait for it to be reached
M104 S200 ; set temperature
G28 ; home all axes
G1 Z5 F5000 ; lift nozzle

; Filament gcode

M109 S200 ; set temperature and wait for it to be reached
G21 ; set units to millimeters
G90 ; use absolute coordinates
M82 ; use absolute distances for extrusion
G92 E0
G1 Z0.350 F2400.000
G1 E-2.00000 F2400.00000
G92 E0
G1 X68.080 Y57.632 F2400.000
G1 E2.00000 F2400.00000
G1 F1800
G1 X70.026 Y56.419 E2.20854
G1 X72.428 Y55.938 E2.43133
G1 X78.987 Y55.863 E3.02778
G1 X131.513 Y55.863 E7.80388
G1 X133.771 Y56.260 E8.01243
G1 X135.760 Y57.403 E8.22097
G1 X137.239 Y59.156 E8.42951
G1 X138.032 Y61.308 E8.63805
G1 X138.138 Y62.487 E8.74576
G1 X138.138 Y95.013 E11.70325
G1 X137.741 Y97.271 E11.91180
G1 X136.597 Y99.260 E12.12034
G1 X135.643 Y100.192 E12.24167
G1 X86.684 Y139.233 E17.93563
G1 X85.033 Y140.501 E18.12490
G1 X83.535 Y141.366 E18.28218
G1 X81.726 Y142.115 E18.46021
G1 X80.056 Y142.563 E18.61743
G1 X78.115 Y142.818 E18.79547
G1 X76.385 Y142.818 E18.95275
G1 X74.444 Y142.563 E19.13078
G1 X72.774 Y142.115 E19.28800
G1 X70.965 Y141.366 E19.46604
G1 X69.467 Y140.501 E19.62331
G1 X67.914 Y139.309 E19.80135
G1 X66.691 Y138.086 E19.95860
G1 X65.499 Y136.533 E20.13663
G1 X64.634 Y135.035 E20.29389
G1 X63.885 Y133.226 E20.47193
G1 X63.437 Y131.556 E20.62918
G1 X63.182 Y129.615 E20.80721
G1 X63.128 Y128.549 E20.90425
G1 X64.941 Y68.886 E26.33184
G1 X65.006 Y68.140 E26.39992
G1 X65.948 Y61.615 E26.99940
G1 X66.664 Y59.437 E27.20794
G1 X68.033 Y57.691 E27.40966
G1 E25.40966 F2400.00000
G92 E0
G1 X69.668 Y59.220 F2400.000
G1 E2.00000 F2400.00000
G1 F1800
G1 X70.447 Y58.440 E2.10029
G1 X71.912 Y58.440 E2.23346
G1 X72.790 Y58.090 E2.31943
G1 X77.808 Y58.090 E2.77586
G1 X78.022 Y58.015 E2.79648
G1 X133.220 Y58.015 E7.81646
G1 X135.635 Y60.430 E8.12702
G1 X135.647 Y61.186 E8.19580
G1 X135.985 Y62.001 E8.27599
G1 X135.985 Y95.977 E11.36602
G1 X135.357 Y97.492 E11.51515
G1 X133.993 Y98.857 E11.69066
G1 X132.478 Y99.485 E11.83980
G1 X77.280 Y99.485 E16.85978
G1 X77.134 Y99.410 E16.87468
G1 X74.040 Y99.410 E17.15614
G1 X73.820 Y99.319 E17.17776
G1 X73.689 Y99.319 E17.18963
G1 X73.470 Y99.410 E17.21124
G1 X70.598 Y99.410 E17.47246
G1 X69.083 Y98.782 E17.62160
G1 X67.718 Y97.417 E17.79711
G1 X67.090 Y95.902 E17.94624
G1 X67.090 Y68.123 E20.47271
G1 X67.718 Y66.608 E20.62184
G1 X67.983 Y66.343 E20.65592
G1 X68.033 Y66.222 E20.66779
G1 X68.033 Y60.855 E21.15589
G1 X69.615 Y59.273 E21.35933
G1 X70.110 Y59.662 F2400.000
G1 F1800
G1 X70.706 Y59.065 E21.43608
G1 X72.036 Y59.065 E21.55701
G1 X72.914 Y58.715 E21.64298
G1 X77.933 Y58.715 E22.09941
G1 X78.147 Y58.640 E22.12003
G1 X132.961 Y58.640 E27.10516
G1 X135.010 Y60.689 E27.36863
G1 X135.022 Y61.311 E27.42518
G1 X135.360 Y62.125 E27.50537
G1 X135.360 Y95.853 E30.57278
G1 X134.827 Y97.138 E30.69930
G1 X133.639 Y98.327 E30.85220
G1 X132.353 Y98.860 E30.97872
G1 X77.539 Y98.860 E35.96386
G1 X77.440 Y98.761 E35.97652
G1 X77.245 Y98.722 E35.99462
G1 X77.095 Y98.785 E36.00942
G1 X74.164 Y98.785 E36.27598
G1 X73.820 Y98.642 E36.30984
G1 X73.689 Y98.642 E36.32171
G1 X73.345 Y98.785 E36.35556
G1 X70.722 Y98.785 E36.59417
G1 X69.437 Y98.252 E36.72069
G1 X68.248 Y97.063 E36.87359
G1 X67.715 Y95.778 E37.00011
G1 X67.715 Y68.247 E39.50396
G1 X68.248 Y66.962 E39.63049
G1 X68.608 Y66.601 E39.67680
G1 X68.658 Y66.481 E39.68867
G1 X68.658 Y61.114 E40.17677
G1 X70.057 Y59.715 E40.35667
G1 X70.552 Y60.104 F2400.000
G1 F1800
G1 X70.965 Y59.690 E40.40987
G1 X72.160 Y59.690 E40.51856
G1 X73.038 Y59.340 E40.60453
G1 X78.057 Y59.340 E41.06096
G1 X78.271 Y59.265 E41.08158
G1 X132.702 Y59.265 E46.03186
G1 X134.385 Y60.948 E46.24825
G1 X134.397 Y61.435 E46.29256
G1 X134.735 Y62.250 E46.37275
G1 X134.735 Y95.729 E49.41755
G1 X134.297 Y96.784 E49.52146
G1 X133.285 Y97.797 E49.65174
G1 X132.229 Y98.235 E49.75565
G1 X77.798 Y98.235 E54.70593
G1 X77.587 Y98.024 E54.73303
G1 X77.392 Y97.985 E54.75113
G1 X76.970 Y98.160 E54.79261
G1 X74.288 Y98.160 E55.03655
G1 X73.820 Y97.966 E55.08265
G1 X73.689 Y97.966 E55.09452
G1 X73.221 Y98.160 E55.14061
G1 X70.846 Y98.160 E55.35661
G1 X69.791 Y97.722 E55.46052
G1 X68.778 Y96.709 E55.59080
G1 X68.340 Y95.654 E55.69471
G1 X68.340 Y88.371 E56.35703
G1 X68.374 Y88.290 E56.36500
G1 X68.374 Y88.160 E56.37687
G1 X68.340 Y88.079 E56.38483
G1 X68.340 Y78.371 E57.26770
G1 X68.374 Y78.290 E57.27567
G1 X68.374 Y78.160 E57.28754
G1 X68.340 Y78.079 E57.29550
G1 X68.340 Y68.371 E58.17837
G1 X68.778 Y67.316 E58.28228
G1 X69.233 Y66.860 E58.34084
G1 X69.283 Y66.740 E58.35271
G1 X69.283 Y61.373 E58.84081
G1 X70.499 Y60.157 E58.99716
G1 X70.993 Y60.546 F2400.000
G1 F1800
G1 X71.224 Y60.315 E59.02682
G1 X72.285 Y60.315 E59.12327
G1 X73.163 Y59.965 E59.20924
G1 X78.181 Y59.965 E59.66567
G1 X78.395 Y59.890 E59.68629
G1 X132.443 Y59.890 E64.60172
G1 X133.760 Y61.207 E64.77102
G1 X133.772 Y61.559 E64.80309
G1 X134.110 Y62.374 E64.88329
G1 X134.110 Y95.605 E67.90547
G1 X133.768 Y96.430 E67.98677
G1 X132.930 Y97.268 E68.09444
G1 X132.105 Y97.610 E68.17574
G1 X78.057 Y97.610 E73.09117
G1 X77.734 Y97.287 E73.13270
G1 X77.538 Y97.248 E73.15081
G1 X76.846 Y97.535 E73.21895
G1 X74.412 Y97.535 E73.44029
G1 X73.820 Y97.289 E73.49862
G1 X73.689 Y97.289 E73.51049
G1 X73.097 Y97.535 E73.56882
G1 X70.970 Y97.535 E73.76220
G1 X70.145 Y97.193 E73.84350
G1 X69.307 Y96.355 E73.95117
G1 X68.965 Y95.530 E74.03247
G1 X68.965 Y88.495 E74.67218
G1 X69.050 Y88.290 E74.69238
G1 X69.050 Y88.160 E74.70425
G1 X68.965 Y87.955 E74.72445
G1 X68.965 Y78.495 E75.58471
G1 X69.050 Y78.290 E75.60491
G1 X69.050 Y78.160 E75.61678
G1 X68.965 Y77.955 E75.63699
G1 X68.965 Y68.495 E76.49724
G1 X69.307 Y67.670 E76.57854
G1 X69.858 Y67.119 E76.64933
G1 X69.908 Y66.999 E76.66120
G1 X69.908 Y61.632 E77.14930
G1 X70.940 Y60.599 E77.28211
G1 X71.435 Y60.988 F2400.000
G1 F1800
G1 X71.483 Y60.940 E77.28823
G1 X72.517 Y60.940 E77.38228
G1 X72.638 Y60.891 E77.39415
G1 X72.691 Y60.837 E77.40099
G1 X73.287 Y60.590 E77.45967
G1 X75.472 Y60.590 E77.65839
G1 X75.564 Y60.629 E77.66745
G1 X75.695 Y60.629 E77.67932
G1 X75.787 Y60.590 E77.68837
G1 X77.972 Y60.590 E77.88709
G1 X78.090 Y60.639 E77.89874
G1 X78.220 Y60.639 E77.91061
G1 X78.520 Y60.515 E77.94007
G1 X132.185 Y60.515 E82.82065
G1 X133.135 Y61.466 E82.94285
G1 X133.135 Y61.728 E82.96674
G1 X133.185 Y61.849 E82.97861
G1 X133.238 Y61.902 E82.98545
G1 X133.485 Y62.498 E83.04414
G1 X133.485 Y95.480 E86.04371
G1 X133.238 Y96.076 E86.10239
G1 X132.576 Y96.738 E86.18745
G1 X131.980 Y96.985 E86.24613
G1 X78.315 Y96.985 E91.12672
G1 X77.940 Y96.609 E91.17496
G1 X77.820 Y96.560 E91.18683
G1 X77.492 Y96.560 E91.21666
G1 X77.371 Y96.609 E91.22854
G1 X77.318 Y96.663 E91.23537
G1 X76.722 Y96.910 E91.29406
G1 X74.537 Y96.910 E91.49278
G1 X73.941 Y96.663 E91.55146
G1 X73.891 Y96.613 E91.55790
G1 X73.619 Y96.613 E91.58263
G1 X73.569 Y96.663 E91.58907
G1 X72.973 Y96.910 E91.64775
G1 X71.095 Y96.910 E91.81852
G1 X70.499 Y96.663 E91.87721
G1 X69.837 Y96.001 E91.96226
G1 X69.590 Y95.405 E92.02095
G1 X69.590 Y88.620 E92.63805
G1 X69.727 Y88.290 E92.67049
G1 X69.727 Y88.160 E92.68236
G1 X69.590 Y87.830 E92.71480
G1 X69.590 Y78.620 E93.55244
G1 X69.727 Y78.290 E93.58488
G1 X69.727 Y78.160 E93.59675
G1 X69.590 Y77.830 E93.62919
G1 X69.590 Y68.620 E94.46684
G1 X69.837 Y68.024 E94.52552
G1 X70.483 Y67.378 E94.60855
G1 X70.533 Y67.258 E94.62042
G1 X70.533 Y61.891 E95.10852
G1 X71.382 Y61.041 E95.21779
G1 X71.742 Y61.565 F2400.000
G1 F1800
G1 X72.776 Y61.565 E95.31184
G1 X72.897 Y61.516 E95.32371
G1 X73.045 Y61.367 E95.34278
G1 X73.411 Y61.215 E95.37886
G1 X75.348 Y61.215 E95.55496
G1 X75.564 Y61.305 E95.57626
G1 X75.695 Y61.305 E95.58813
G1 X75.911 Y61.215 E95.60942
G1 X77.847 Y61.215 E95.78553
G1 X78.090 Y61.316 E95.80941
G1 X78.220 Y61.316 E95.82128
G1 X78.644 Y61.140 E95.86298
G1 X131.926 Y61.140 E100.70871
G1 X132.510 Y61.724 E100.78382
G1 X132.510 Y61.987 E100.80771
G1 X132.560 Y62.108 E100.81958
G1 X132.708 Y62.256 E100.83866
G1 X132.860 Y62.622 E100.87473
G1 X132.860 Y95.356 E103.85169
G1 X132.708 Y95.722 E103.88776
G1 X132.222 Y96.208 E103.95021
G1 X131.856 Y96.360 E103.98628
G1 X78.574 Y96.360 E108.83201
G1 X78.199 Y95.984 E108.88025
G1 X78.079 Y95.935 E108.89213
G1 X77.233 Y95.935 E108.96905
G1 X77.112 Y95.984 E108.98092
G1 X76.964 Y96.133 E109.00000
G1 X76.598 Y96.285 E109.03607
G1 X74.661 Y96.285 E109.21217
G1 X74.295 Y96.133 E109.24825
G1 X74.146 Y95.984 E109.26732
G1 X74.026 Y95.935 E109.27919
G1 X73.484 Y95.935 E109.32851
G1 X73.363 Y95.984 E109.34038
G1 X73.215 Y96.133 E109.35946
G1 X72.848 Y96.285 E109.39553
G1 X71.219 Y96.285 E109.54368
G1 X70.853 Y96.133 E109.57975
G1 X70.367 Y95.647 E109.64220
G1 X70.215 Y95.281 E109.67827
G1 X70.215 Y88.744 E110.27276
G1 X70.403 Y88.290 E110.31744
G1 X70.403 Y88.160 E110.32931
G1 X70.215 Y87.706 E110.37399
G1 X70.215 Y78.744 E111.18902
G1 X70.403 Y78.290 E111.23369
G1 X70.403 Y78.160 E111.24557
G1 X70.215 Y77.706 E111.29024
G1 X70.215 Y68.744 E112.10528
G1 X70.367 Y68.378 E112.14135
G1 X70.853 Y67.892 E112.20379
G1 X71.047 Y67.812 E112.22294
G1 X71.158 Y67.646 E112.24105
G1 X71.158 Y62.149 E112.74094
G1 X71.689 Y61.618 E112.80923
G1 E110.80923 F2400.00000
G92 E0
G1 X72.082 Y67.960 F2400.000
G1 E2.00000 F2400.00000
G1 F1800
G1 X71.839 Y67.718 E2.03113
G1 X71.783 Y67.582 E2.04459
G1 X71.783 Y62.408 E2.51507
G1 X72.001 Y62.190 E2.54309
G1 X73.035 Y62.190 E2.63714
G1 X73.155 Y62.141 E2.64901
G1 X73.399 Y61.897 E2.68033
G1 X73.536 Y61.840 E2.69379
G1 X75.223 Y61.840 E2.84728
G1 X75.360 Y61.897 E2.86074
G1 X75.493 Y62.030 E2.87788
G1 X75.765 Y62.030 E2.90260
G1 X75.899 Y61.897 E2.91974
G1 X76.035 Y61.840 E2.93320
G1 X77.723 Y61.840 E3.08669
G1 X77.860 Y61.897 E3.10015
G1 X78.072 Y62.110 E3.12749
G1 X78.344 Y62.110 E3.15221
G1 X78.632 Y61.822 E3.18919
G1 X78.768 Y61.765 E3.20265
G1 X131.667 Y61.765 E8.01353
G1 X131.885 Y61.983 E8.04156
G1 X131.885 Y62.246 E8.06545
G1 X131.935 Y62.367 E8.07732
G1 X132.178 Y62.610 E8.10863
G1 X132.235 Y62.747 E8.12209
G1 X132.235 Y95.232 E11.07644
G1 X132.178 Y95.368 E11.08990
G1 X131.868 Y95.678 E11.12973
G1 X131.732 Y95.735 E11.14319
G1 X78.833 Y95.735 E15.95407
G1 X78.615 Y95.517 E15.98209
G1 X78.615 Y95.275 E16.00405
G1 X78.210 Y95.107 E16.04393
G1 X78.008 Y95.310 E16.06993
G1 X76.974 Y95.310 E16.16398
G1 X76.853 Y95.359 E16.17585
G1 X76.610 Y95.603 E16.20716
G1 X76.473 Y95.660 E16.22062
G1 X74.785 Y95.660 E16.37412
G1 X74.649 Y95.603 E16.38758
G1 X74.405 Y95.359 E16.41889
G1 X74.285 Y95.310 E16.43076
G1 X73.225 Y95.310 E16.52716
G1 X73.104 Y95.359 E16.53904
G1 X72.861 Y95.603 E16.57035
G1 X72.724 Y95.660 E16.58381
G1 X71.343 Y95.660 E16.70935
G1 X71.207 Y95.603 E16.72281
G1 X70.897 Y95.293 E16.76264
G1 X70.840 Y95.157 E16.77610
G1 X70.840 Y88.868 E17.34798
G1 X70.897 Y88.732 E17.36143
G1 X71.268 Y88.361 E17.40913
G1 X71.268 Y88.089 E17.43385
G1 X70.897 Y87.718 E17.48154
G1 X70.840 Y87.582 E17.49500
G1 X70.840 Y78.868 E18.28742
G1 X70.897 Y78.732 E18.30088
G1 X71.268 Y78.361 E18.34857
G1 X71.268 Y78.089 E18.37329
G1 X70.897 Y77.718 E18.42099
G1 X70.840 Y77.582 E18.43445
G1 X70.840 Y68.868 E19.22686
G1 X70.897 Y68.732 E19.24032
G1 X71.207 Y68.422 E19.28015
G1 X71.343 Y68.365 E19.29361
G1 X71.914 Y68.365 E19.34547
G1 X72.053 Y68.030 E19.37853
G1 E17.37853 F2400.00000
G92 E0
G1 X76.980 Y117.128 F2400.000
G1 E2.00000 F2400.00000
G1 F1800
G1 X77.520 Y117.128 E2.04915
G1 X79.997 Y117.454 E2.27635
G1 X80.519 Y117.594 E2.32549
G1 X82.827 Y118.550 E2.55269
G1 X83.295 Y118.820 E2.60183
G1 X85.277 Y120.341 E2.82904
G1 X85.659 Y120.723 E2.87818
G1 X87.180 Y122.705 E3.10538
G1 X87.450 Y123.173 E3.15453
G1 X88.406 Y125.481 E3.38173
G1 X88.546 Y126.003 E3.43087
G1 X88.872 Y128.480 E3.65807
G1 X88.872 Y129.020 E3.70721
G1 X88.546 Y131.497 E3.93441
G1 X88.406 Y132.019 E3.98355
G1 X87.450 Y134.327 E4.21076
G1 X87.180 Y134.795 E4.25990
G1 X85.659 Y136.777 E4.48711
G1 X85.277 Y137.159 E4.53625
G1 X83.295 Y138.680 E4.76345
G1 X82.827 Y138.950 E4.81260
G1 X80.519 Y139.906 E5.03980
G1 X79.997 Y140.046 E5.08893
G1 X77.520 Y140.372 E5.31614
G1 X76.980 Y140.372 E5.36529
G1 X74.503 Y140.046 E5.59249
G1 X73.981 Y139.906 E5.64162
G1 X71.673 Y138.950 E5.86882
G1 X71.205 Y138.680 E5.91796
G1 X69.223 Y137.159 E6.14518
G1 X68.841 Y136.777 E6.19431
G1 X67.320 Y134.795 E6.42152
G1 X67.050 Y134.327 E6.47066
G1 X66.094 Y132.019 E6.69787
G1 X65.954 Y131.497 E6.74701
G1 X65.628 Y129.020 E6.97421
G1 X65.628 Y128.480 E7.02335
G1 X65.954 Y126.003 E7.25055
G1 X66.094 Y125.481 E7.29969
G1 X67.050 Y123.173 E7.52689
G1 X67.320 Y122.705 E7.57604
G1 X68.841 Y120.723 E7.80324
G1 X69.223 Y120.341 E7.85238
G1 X71.205 Y118.820 E8.07959
G1 X71.673 Y118.550 E8.12873
G1 X73.981 Y117.594 E8.35594
G1 X74.503 Y117.454 E8.40507
G1 X76.905 Y117.138 E8.62545
G1 X77.021 Y117.753 F2400.000
G1 F1800
G1 X77.479 Y117.753 E8.66715
G1 X79.875 Y118.068 E8.88690
G1 X80.318 Y118.187 E8.92858
G1 X82.550 Y119.112 E9.14833
G1 X82.947 Y119.341 E9.19003
G1 X84.864 Y120.812 E9.40978
G1 X85.188 Y121.136 E9.45147
G1 X86.659 Y123.053 E9.67122
G1 X86.888 Y123.450 E9.71291
G1 X87.813 Y125.682 E9.93267
G1 X87.932 Y126.125 E9.97436
G1 X88.247 Y128.521 E10.19410
G1 X88.247 Y128.979 E10.23580
G1 X87.932 Y131.375 E10.45555
G1 X87.813 Y131.818 E10.49723
G1 X86.888 Y134.050 E10.71699
G1 X86.659 Y134.447 E10.75868
G1 X85.188 Y136.364 E10.97844
G1 X84.864 Y136.688 E11.02013
G1 X82.947 Y138.159 E11.23988
G1 X82.550 Y138.388 E11.28158
G1 X80.318 Y139.313 E11.50132
G1 X79.875 Y139.432 E11.54300
G1 X77.479 Y139.747 E11.76276
G1 X77.021 Y139.747 E11.80446
G1 X74.625 Y139.432 E12.02420
G1 X74.182 Y139.313 E12.06588
G1 X71.950 Y138.388 E12.28564
G1 X71.553 Y138.159 E12.32733
G1 X69.636 Y136.688 E12.54709
G1 X69.312 Y136.364 E12.58878
G1 X67.841 Y134.447 E12.80853
G1 X67.612 Y134.050 E12.85022
G1 X66.687 Y131.818 E13.06998
G1 X66.568 Y131.375 E13.11167
G1 X66.253 Y128.979 E13.33142
G1 X66.253 Y128.521 E13.37311
G1 X66.568 Y126.125 E13.59285
G1 X66.687 Y125.682 E13.63454
G1 X67.612 Y123.450 E13.85430
G1 X67.841 Y123.053 E13.89599
G1 X69.312 Y121.136 E14.11574
G1 X69.636 Y120.812 E14.15743
G1 X71.553 Y119.341 E14.37719
G1 X71.950 Y119.112 E14.41888
G1 X74.182 Y118.187 E14.63863
G1 X74.625 Y118.068 E14.68031
G1 X76.946 Y117.763 E14.89324
G1 X77.062 Y118.378 F2400.000
G1 F1800
G1 X77.438 Y118.378 E14.92749
G1 X79.753 Y118.683 E15.13979
G1 X80.116 Y118.780 E15.17402
G1 X82.273 Y119.673 E15.38632
G1 X82.599 Y119.862 E15.42056
G1 X84.451 Y121.283 E15.63287
G1 X84.717 Y121.549 E15.66711
G1 X86.138 Y123.401 E15.87941
G1 X86.327 Y123.727 E15.91365
G1 X87.220 Y125.884 E16.12595
G1 X87.317 Y126.247 E16.16019
G1 X87.622 Y128.562 E16.37249
G1 X87.622 Y128.938 E16.40673
G1 X87.317 Y131.253 E16.61902
G1 X87.220 Y131.616 E16.65326
G1 X86.327 Y133.773 E16.86557
G1 X86.138 Y134.099 E16.89981
G1 X84.717 Y135.951 E17.11211
G1 X84.451 Y136.217 E17.14635
G1 X82.599 Y137.638 E17.35865
G1 X82.273 Y137.827 E17.39289
G1 X80.116 Y138.720 E17.60519
G1 X79.753 Y138.817 E17.63942
G1 X77.438 Y139.122 E17.85173
G1 X77.062 Y139.122 E17.88597
G1 X74.747 Y138.817 E18.09827
G1 X74.384 Y138.720 E18.13250
G1 X72.227 Y137.827 E18.34480
G1 X71.901 Y137.638 E18.37904
G1 X70.049 Y136.217 E18.59135
G1 X69.783 Y135.951 E18.62559
G1 X68.362 Y134.099 E18.83789
G1 X68.173 Y133.773 E18.87213
G1 X67.280 Y131.616 E19.08443
G1 X67.183 Y131.253 E19.11867
G1 X66.878 Y128.938 E19.33097
G1 X66.878 Y128.562 E19.36521
G1 X67.183 Y126.247 E19.57750
G1 X67.280 Y125.884 E19.61174
G1 X68.173 Y123.727 E19.82405
G1 X68.362 Y123.401 E19.85829
G1 X69.783 Y121.549 E20.07059
G1 X70.049 Y121.283 E20.10483
G1 X71.901 Y119.862 E20.31713
G1 X72.227 Y119.673 E20.35137
G1 X74.384 Y118.780 E20.56367
G1 X74.747 Y118.683 E20.59791
G1 X76.987 Y118.388 E20.80338
