; generated by Slic3r 1.3.0 on 2019-02-17 at 01:22:22

; external perimeters extrusion width = 0.55mm (4.37mm^3/s)
; perimeters extrusion width = 0.70mm (11.44mm^3/s)
; infill extrusion width = 0.62mm (13.45mm^3/s)
; solid infill extrusion width = 0.70mm (3.81mm^3/s)
; top infill extrusion width = 0.70mm (2.86mm^3/s)
; support material extrusion width = 0.55mm (8.74mm^3/s)

M107
M190 S60 ; set bed temperature and wait for it to be reached
M104 S200 ; set temperature
G28 ; home all axes
G1 Z5 F5000 ; lift nozzle

; Filament gcode

M109 S200 ; set temperature and wait for it to be reached
G21 ; set units to millimeters
G90 ; use absolute coordinates
M82 ; use absolute distances for extrusion
G92 E0
G1 Z0.350 F2400.000
G1 E-2.00000 F2400.00000
G92 E0
G1 X68.457 Y72.910 F2400.000
G1 E2.00000 F2400.00000
G1 F600
G1 X94.772 Y50.517 E5.14196
G1 X96.750 Y49.356 E5.35050
G1 X99.065 Y48.938 E5.56448
G1 X106.249 Y48.938 E6.21767
G1 X108.508 Y49.335 E6.42622
G1 X109.953 Y50.070 E6.57369
G1 X133.954 Y66.258 E9.20608
G1 X135.605 Y67.850 E9.41463
G1 X136.614 Y69.909 E9.62317
G1 X136.875 Y71.750 E9.79221
G1 X136.875 Y106.750 E12.97475
G1 X136.478 Y109.009 E13.18329
G1 X135.335 Y110.997 E13.39183
G1 X134.227 Y112.048 E13.53070
G1 X86.480 Y147.887 E18.95926
G1 X84.940 Y148.930 E19.12842
G1 X83.788 Y149.546 E19.24715
G1 X82.539 Y150.064 E19.37016
G1 X81.581 Y150.378 E19.46174
G1 X80.332 Y150.684 E19.57875
G1 X79.619 Y150.818 E19.64472
G1 X78.369 Y150.983 E19.75935
G1 X76.988 Y151.019 E19.88497
G1 X75.389 Y150.885 E20.03083
G1 X74.140 Y150.720 E20.14545
G1 X72.476 Y150.276 E20.30204
G1 X71.220 Y149.757 E20.42563
G1 X70.366 Y149.403 E20.50964
G1 X68.868 Y148.538 E20.66692
G1 X67.067 Y147.156 E20.87339
G1 X65.844 Y145.933 E21.03061
G1 X64.599 Y144.192 E21.22526
G1 X63.870 Y142.862 E21.36319
G1 X62.620 Y139.794 E21.66442
G1 X62.187 Y138.159 E21.81817
G1 X61.984 Y136.615 E21.95984
G1 X61.945 Y135.270 E22.08215
G1 X66.143 Y77.476 E27.35120
G1 X66.702 Y75.252 E27.55974
G1 X68.412 Y72.970 E27.81896
G1 E25.81896 F2400.00000
G92 E0
G1 X94.861 Y61.973 F2400.000
G1 E2.00000 F2400.00000
G1 F600
G1 X94.593 Y61.327 E2.06358
G1 X94.593 Y54.598 E2.67564
G1 X95.221 Y53.083 E2.82478
G1 X96.586 Y51.718 E3.00029
G1 X98.101 Y51.090 E3.14942
G1 X107.214 Y51.090 E3.97824
G1 X108.729 Y51.718 E4.12737
G1 X110.093 Y53.083 E4.30288
G1 X110.721 Y54.598 E4.45202
G1 X110.721 Y63.145 E5.22937
G1 X108.306 Y65.560 E5.53992
G1 X106.842 Y65.560 E5.67309
G1 X105.964 Y65.910 E5.75906
G1 X100.285 Y65.910 E6.27555
G1 X98.770 Y65.282 E6.42469
G1 X98.372 Y64.885 E6.47582
G1 X98.252 Y64.835 E6.48769
G1 X98.101 Y64.835 E6.50144
G1 X96.586 Y64.207 E6.65058
G1 X95.221 Y62.842 E6.82609
G1 X94.890 Y62.043 E6.90482
G1 X95.438 Y61.734 F2400.000
G1 F600
G1 X95.218 Y61.203 E6.95709
G1 X95.218 Y54.722 E7.54654
G1 X95.751 Y53.437 E7.67306
G1 X96.940 Y52.248 E7.82596
G1 X98.225 Y51.715 E7.95248
G1 X107.089 Y51.715 E8.75868
G1 X108.375 Y52.248 E8.88520
G1 X109.564 Y53.437 E9.03810
G1 X110.096 Y54.722 E9.16462
G1 X110.096 Y62.886 E9.90712
G1 X108.047 Y64.935 E10.17059
G1 X106.718 Y64.935 E10.29152
G1 X105.840 Y65.285 E10.37749
G1 X100.409 Y65.285 E10.87137
G1 X99.124 Y64.752 E10.99789
G1 X98.631 Y64.260 E11.06126
G1 X98.511 Y64.210 E11.07313
G1 X98.225 Y64.210 E11.09912
G1 X96.940 Y63.677 E11.22565
G1 X95.751 Y62.488 E11.37854
G1 X95.467 Y61.804 E11.44596
G1 X96.016 Y61.495 F2400.000
G1 F600
G1 X95.843 Y61.079 E11.48694
G1 X95.843 Y54.846 E12.05377
G1 X96.281 Y53.791 E12.15768
G1 X97.294 Y52.778 E12.28796
G1 X98.349 Y52.340 E12.39187
G1 X106.965 Y52.340 E13.17546
G1 X108.021 Y52.778 E13.27937
G1 X109.034 Y53.791 E13.40965
G1 X109.471 Y54.846 E13.51356
G1 X109.471 Y62.627 E14.22121
G1 X107.789 Y64.310 E14.43759
G1 X106.593 Y64.310 E14.54628
G1 X105.715 Y64.660 E14.63225
G1 X100.534 Y64.660 E15.10352
G1 X99.478 Y64.222 E15.20743
G1 X98.890 Y63.635 E15.28303
G1 X98.770 Y63.585 E15.29490
G1 X98.349 Y63.585 E15.33314
G1 X97.294 Y63.147 E15.43705
G1 X96.281 Y62.134 E15.56733
G1 X96.044 Y61.564 E15.62345
G1 X96.593 Y61.256 F2400.000
G1 F600
G1 X96.468 Y60.955 E15.65311
G1 X96.468 Y54.970 E16.19733
G1 X96.810 Y54.145 E16.27863
G1 X97.648 Y53.307 E16.38630
G1 X98.473 Y52.965 E16.46760
G1 X106.841 Y52.965 E17.22857
G1 X107.667 Y53.307 E17.30987
G1 X108.504 Y54.145 E17.41754
G1 X108.846 Y54.970 E17.49884
G1 X108.846 Y62.368 E18.17163
G1 X107.530 Y63.685 E18.34093
G1 X106.469 Y63.685 E18.43738
G1 X105.591 Y64.035 E18.52335
G1 X100.658 Y64.035 E18.97200
G1 X99.832 Y63.693 E19.05330
G1 X99.149 Y63.010 E19.14114
G1 X99.028 Y62.960 E19.15301
G1 X98.473 Y62.960 E19.20348
G1 X97.648 Y62.618 E19.28478
G1 X96.810 Y61.780 E19.39245
G1 X96.622 Y61.325 E19.43726
G1 X97.340 Y61.426 F2400.000
G1 F600
G1 X97.093 Y60.830 E19.49594
G1 X97.093 Y55.095 E20.01755
G1 X97.340 Y54.499 E20.07623
G1 X98.002 Y53.837 E20.16129
G1 X98.598 Y53.590 E20.21998
G1 X101.717 Y53.590 E20.50369
G1 X101.809 Y53.629 E20.51275
G1 X101.940 Y53.629 E20.52462
G1 X102.032 Y53.590 E20.53367
G1 X104.217 Y53.590 E20.73239
G1 X104.309 Y53.629 E20.74145
G1 X104.439 Y53.629 E20.75332
G1 X104.531 Y53.590 E20.76238
G1 X106.717 Y53.590 E20.96110
G1 X107.313 Y53.837 E21.01978
G1 X107.974 Y54.499 E21.10484
G1 X108.221 Y55.095 E21.16352
G1 X108.221 Y62.109 E21.80147
G1 X107.271 Y63.060 E21.92367
G1 X106.237 Y63.060 E22.01772
G1 X106.116 Y63.109 E22.02959
G1 X106.063 Y63.163 E22.03643
G1 X105.467 Y63.410 E22.09512
G1 X103.282 Y63.410 E22.29384
G1 X103.190 Y63.371 E22.30289
G1 X103.059 Y63.371 E22.31476
G1 X102.967 Y63.410 E22.32382
G1 X100.782 Y63.410 E22.52254
G1 X100.186 Y63.163 E22.58122
G1 X99.525 Y62.501 E22.66628
G1 X99.501 Y62.445 E22.67181
G1 X99.336 Y62.335 E22.68991
G1 X98.598 Y62.335 E22.75704
G1 X98.002 Y62.088 E22.81572
G1 X97.393 Y61.479 E22.89396
G1 X97.870 Y61.072 F2400.000
G1 F600
G1 X97.718 Y60.706 E22.93003
G1 X97.718 Y55.219 E23.42903
G1 X97.870 Y54.853 E23.46510
G1 X98.356 Y54.367 E23.52754
G1 X98.722 Y54.215 E23.56361
G1 X101.593 Y54.215 E23.82472
G1 X101.809 Y54.305 E23.84601
G1 X101.940 Y54.305 E23.85788
G1 X102.156 Y54.215 E23.87918
G1 X104.093 Y54.215 E24.05528
G1 X104.309 Y54.305 E24.07658
G1 X104.439 Y54.305 E24.08845
G1 X104.656 Y54.215 E24.10974
G1 X106.592 Y54.215 E24.28585
G1 X106.959 Y54.367 E24.32192
G1 X107.444 Y54.853 E24.38437
G1 X107.596 Y55.219 E24.42044
G1 X107.596 Y61.851 E25.02353
G1 X107.012 Y62.435 E25.09865
G1 X105.978 Y62.435 E25.19270
G1 X105.857 Y62.484 E25.20457
G1 X105.709 Y62.633 E25.22365
G1 X105.342 Y62.785 E25.25972
G1 X103.406 Y62.785 E25.43582
G1 X103.190 Y62.695 E25.45712
G1 X103.059 Y62.695 E25.46899
G1 X102.843 Y62.785 E25.49028
G1 X100.906 Y62.785 E25.66639
G1 X100.540 Y62.633 E25.70246
G1 X100.055 Y62.147 E25.76491
G1 X99.919 Y61.820 E25.79711
G1 X99.754 Y61.710 E25.81521
G1 X98.722 Y61.710 E25.90901
G1 X98.356 Y61.558 E25.94508
G1 X97.923 Y61.125 E26.00071
G1 E24.00071 F2400.00000
G92 E0
G1 X106.753 Y61.810 F2400.000
G1 E2.00000 F2400.00000
G1 F600
G1 X105.719 Y61.810 E2.09405
G1 X105.598 Y61.859 E2.10592
G1 X105.355 Y62.103 E2.13724
G1 X105.218 Y62.160 E2.15069
G1 X103.530 Y62.160 E2.30419
G1 X103.394 Y62.103 E2.31765
G1 X103.260 Y61.970 E2.33479
G1 X102.989 Y61.970 E2.35951
G1 X102.855 Y62.103 E2.37665
G1 X102.719 Y62.160 E2.39011
G1 X101.031 Y62.160 E2.54360
G1 X100.894 Y62.103 E2.55706
G1 X100.584 Y61.793 E2.59689
G1 X100.528 Y61.657 E2.61035
G1 X100.528 Y61.277 E2.64489
G1 X100.336 Y61.085 E2.66961
G1 X98.846 Y61.085 E2.80504
G1 X98.710 Y61.028 E2.81849
G1 X98.400 Y60.718 E2.85833
G1 X98.343 Y60.582 E2.87179
G1 X98.343 Y55.343 E3.34817
G1 X98.400 Y55.207 E3.36163
G1 X98.710 Y54.897 E3.40146
G1 X98.846 Y54.840 E3.41492
G1 X101.469 Y54.840 E3.65341
G1 X101.605 Y54.897 E3.66687
G1 X101.739 Y55.030 E3.68401
G1 X102.011 Y55.030 E3.70873
G1 X102.144 Y54.897 E3.72587
G1 X102.281 Y54.840 E3.73933
G1 X103.968 Y54.840 E3.89282
G1 X104.105 Y54.897 E3.90628
G1 X104.238 Y55.030 E3.92342
G1 X104.510 Y55.030 E3.94814
G1 X104.643 Y54.897 E3.96528
G1 X104.780 Y54.840 E3.97874
G1 X106.468 Y54.840 E4.13223
G1 X106.605 Y54.897 E4.14569
G1 X106.914 Y55.207 E4.18552
G1 X106.971 Y55.343 E4.19898
G1 X106.971 Y61.592 E4.76723
G1 X106.806 Y61.757 E4.78843
G1 E2.78843 F2400.00000
G92 E0
G1 X76.128 Y74.768 F2400.000
G1 E2.00000 F2400.00000
G1 F600
G1 X76.128 Y70.043 E2.42971
G1 X78.543 Y67.628 E2.74027
G1 X131.957 Y67.628 E7.59811
G1 X134.372 Y70.043 E7.90867
G1 X134.372 Y84.088 E9.18607
G1 X131.822 Y85.561 E9.45384
G1 X131.822 Y85.939 E9.48830
G1 X134.372 Y87.412 E9.75608
G1 X134.372 Y108.457 E11.67010
G1 X131.957 Y110.872 E11.98066
G1 X78.543 Y110.872 E16.83850
G1 X76.128 Y108.457 E17.14906
G1 X76.128 Y96.732 E18.21539
G1 X75.800 Y96.543 E18.24984
G1 X72.750 Y98.304 E18.57013
G1 X68.628 Y95.924 E19.00300
G1 X68.628 Y75.576 E20.85357
G1 X72.750 Y73.196 E21.28645
G1 X75.800 Y74.957 E21.60673
G1 X76.063 Y74.805 E21.63437
G1 X76.753 Y75.850 F2400.000
G1 F600
G1 X76.753 Y70.302 E22.13898
G1 X78.802 Y68.253 E22.40245
G1 X131.698 Y68.253 E27.21321
G1 X133.747 Y70.302 E27.47668
G1 X133.747 Y83.728 E28.69771
G1 X130.572 Y85.561 E29.03112
G1 X130.572 Y85.939 E29.06558
G1 X133.747 Y87.772 E29.39899
G1 X133.747 Y108.198 E31.25665
G1 X131.698 Y110.247 E31.52012
G1 X78.802 Y110.247 E36.33087
G1 X76.753 Y108.198 E36.59434
G1 X76.753 Y95.650 E37.73558
G1 X76.425 Y95.461 E37.77004
G1 X72.750 Y97.582 E38.15595
G1 X69.253 Y95.563 E38.52319
G1 X69.253 Y75.937 E40.30813
G1 X72.750 Y73.918 E40.67537
G1 X76.425 Y76.039 E41.06129
G1 X76.688 Y75.888 E41.08892
G1 E39.08892 F2400.00000
G92 E0
G1 X125.747 Y83.526 F2400.000
G1 E2.00000 F2400.00000
G1 F600
G1 X126.075 Y83.336 E2.03446
G1 X129.928 Y85.561 E2.43906
G1 X129.928 Y85.939 E2.47352
G1 X126.075 Y88.164 E2.87812
G1 X125.747 Y87.974 E2.91258
G1 X125.747 Y83.601 E3.31036
G1 X126.372 Y84.608 F2400.000
G1 F600
G1 X126.700 Y84.419 E3.34482
G1 X128.678 Y85.561 E3.55252
G1 X128.678 Y85.939 E3.58698
G1 X126.700 Y87.081 E3.79468
G1 X126.372 Y86.892 E3.82913
G1 X126.372 Y84.683 E4.03001
G1 E2.03001 F2400.00000
G92 E0
G1 X125.122 Y82.443 F2400.000
G1 E2.00000 F2400.00000
G1 F600
G1 X125.122 Y89.057 E2.60150
G1 X125.450 Y89.246 E2.63596
G1 X130.250 Y86.475 E3.14002
G1 X133.122 Y88.133 E3.44162
G1 X133.122 Y107.940 E5.24292
G1 X131.440 Y109.622 E5.45930
G1 X79.060 Y109.622 E10.22297
G1 X77.378 Y107.940 E10.43935
G1 X77.378 Y94.567 E11.65549
G1 X77.050 Y94.378 E11.68995
G1 X72.750 Y96.861 E12.14150
G1 X69.878 Y95.202 E12.44310
G1 X69.878 Y76.298 E14.16241
G1 X72.750 Y74.639 E14.46402
G1 X77.050 Y77.122 E14.91557
G1 X77.378 Y76.933 E14.95002
G1 X77.378 Y70.560 E15.52955
G1 X79.060 Y68.878 E15.74593
G1 X131.440 Y68.878 E20.50959
G1 X133.122 Y70.560 E20.72597
G1 X133.122 Y83.367 E21.89065
G1 X130.250 Y85.025 E22.19225
G1 X125.450 Y82.254 E22.69631
G1 X125.187 Y82.406 E22.72395
G1 X124.497 Y81.361 F2400.000
G1 F600
G1 X124.497 Y90.139 E23.52236
G1 X124.825 Y90.329 E23.55681
G1 X130.250 Y87.197 E24.12651
G1 X132.497 Y88.494 E24.36248
G1 X132.497 Y107.681 E26.10741
G1 X131.181 Y108.997 E26.27670
G1 X79.319 Y108.997 E30.99328
G1 X78.003 Y107.681 E31.16257
G1 X78.003 Y93.485 E32.45362
G1 X77.675 Y93.295 E32.48808
G1 X72.750 Y96.139 E33.00527
G1 X70.503 Y94.842 E33.24124
G1 X70.503 Y76.658 E34.89491
G1 X72.750 Y75.361 E35.13088
G1 X77.675 Y78.205 E35.64806
G1 X78.003 Y78.015 E35.68252
G1 X78.003 Y70.819 E36.33695
G1 X79.319 Y69.503 E36.50624
G1 X131.181 Y69.503 E41.22282
G1 X132.497 Y70.819 E41.39211
G1 X132.497 Y83.006 E42.50043
G1 X130.250 Y84.303 E42.73639
G1 X124.825 Y81.171 E43.30609
G1 X124.562 Y81.323 E43.33373
G1 X123.872 Y80.278 F2400.000
G1 F600
G1 X123.872 Y91.222 E44.32904
G1 X124.200 Y91.411 E44.36349
G1 X130.250 Y87.919 E44.99882
G1 X131.872 Y88.855 E45.16916
G1 X131.872 Y107.422 E46.85773
G1 X130.922 Y108.372 E46.97994
G1 X79.578 Y108.372 E51.64942
G1 X78.628 Y107.422 E51.77163
G1 X78.628 Y92.402 E53.13758
G1 X78.300 Y92.213 E53.17204
G1 X72.750 Y95.417 E53.75486
G1 X71.128 Y94.481 E53.92520
G1 X71.128 Y77.019 E55.51323
G1 X72.750 Y76.083 E55.68357
G1 X78.300 Y79.287 E56.26639
G1 X78.628 Y79.098 E56.30085
G1 X78.628 Y71.078 E57.03019
G1 X79.578 Y70.128 E57.15239
G1 X130.922 Y70.128 E61.82188
G1 X131.872 Y71.078 E61.94408
G1 X131.872 Y82.645 E62.99603
G1 X130.250 Y83.581 E63.16636
G1 X124.200 Y80.089 E63.80170
G1 X123.937 Y80.240 E63.82933
G1 X123.247 Y79.195 F2400.000
G1 F600
G1 X123.247 Y92.305 E65.02155
G1 X123.575 Y92.494 E65.05600
G1 X130.250 Y88.640 E65.75697
G1 X131.247 Y89.216 E65.86167
G1 X131.247 Y107.163 E67.49388
G1 X130.663 Y107.747 E67.56899
G1 X79.837 Y107.747 E72.19139
G1 X79.253 Y107.163 E72.26651
G1 X79.253 Y91.320 E73.70737
G1 X78.925 Y91.130 E73.74183
G1 X72.750 Y94.695 E74.39029
G1 X71.753 Y94.120 E74.49499
G1 X71.753 Y77.380 E76.01739
G1 X72.750 Y76.805 E76.12209
G1 X78.925 Y80.370 E76.77054
G1 X79.253 Y80.180 E76.80500
G1 X79.253 Y71.337 E77.60925
G1 X79.837 Y70.753 E77.68436
G1 X130.663 Y70.753 E82.30676
G1 X131.247 Y71.337 E82.38188
G1 X131.247 Y82.284 E83.37747
G1 X130.250 Y82.860 E83.48217
G1 X123.575 Y79.006 E84.18313
G1 X123.312 Y79.158 E84.21077
G1 X122.622 Y78.113 F2400.000
G1 F600
G1 X122.622 Y93.387 E85.59988
G1 X122.950 Y93.577 E85.63434
G1 X130.250 Y89.362 E86.40094
G1 X130.622 Y89.577 E86.44000
G1 X130.622 Y106.904 E88.01586
G1 X130.404 Y107.122 E88.04388
G1 X80.096 Y107.122 E92.61919
G1 X79.878 Y106.904 E92.64722
G1 X79.878 Y90.237 E94.16299
G1 X79.550 Y90.048 E94.19745
G1 X72.750 Y93.974 E94.91154
G1 X72.378 Y93.759 E94.95060
G1 X72.378 Y77.741 E96.40737
G1 X72.750 Y77.526 E96.44644
G1 X79.550 Y81.452 E97.16053
G1 X79.878 Y81.263 E97.19498
G1 X79.878 Y71.596 E98.07414
G1 X80.096 Y71.378 E98.10216
G1 X130.404 Y71.378 E102.67747
G1 X130.622 Y71.596 E102.70550
G1 X130.622 Y81.923 E103.64473
G1 X130.250 Y82.138 E103.68380
G1 X122.950 Y77.923 E104.45039
G1 X122.687 Y78.075 E104.47803
G1 E102.47803 F2400.00000
G92 E0
G1 X87.086 Y143.434 F2400.000
G1 E2.00000 F2400.00000
G1 F600
G1 X86.975 Y143.600 E2.01810
G1 X86.975 Y144.296 E2.08145
G1 X84.561 Y146.711 E2.39200
G1 X84.385 Y146.711 E2.40795
G1 X84.278 Y146.749 E2.41831
G1 X83.628 Y147.283 E2.49482
G1 X80.588 Y148.542 E2.79403
G1 X80.363 Y148.520 E2.81457
G1 X80.212 Y148.568 E2.82905
G1 X77.048 Y148.985 E3.11927
G1 X76.724 Y148.889 E3.14995
G1 X73.546 Y148.471 E3.44148
G1 X72.870 Y148.110 E3.51121
G1 X71.044 Y147.354 E3.69095
G1 X70.528 Y147.076 E3.74419
G1 X70.304 Y146.927 E3.76874
G1 X69.327 Y146.177 E3.88077
G1 X68.252 Y145.352 E4.00396
G1 X68.049 Y145.174 E4.02850
G1 X67.648 Y144.748 E4.08172
G1 X66.635 Y143.428 E4.23299
G1 X66.629 Y143.365 E4.23878
G1 X66.580 Y143.262 E4.24914
G1 X66.161 Y142.842 E4.30311
G1 X65.533 Y141.327 E4.45225
G1 X65.533 Y140.684 E4.51073
G1 X65.470 Y140.551 E4.52413
G1 X64.577 Y139.818 E4.62920
G1 X64.098 Y136.177 E4.96321
G1 X64.080 Y135.908 E4.98776
G1 X64.098 Y135.323 E5.04099
G1 X64.435 Y132.759 E5.27619
G1 X64.570 Y132.189 E5.32942
G1 X64.657 Y131.933 E5.35397
G1 X65.576 Y129.713 E5.57253
G1 X65.842 Y129.389 E5.61061
G1 X65.879 Y129.300 E5.61946
G1 X65.906 Y129.022 E5.64485
G1 X67.648 Y126.752 E5.90504
G1 X67.978 Y126.358 E5.95179
G1 X70.889 Y124.125 E6.28547
G1 X71.976 Y124.017 E6.38478
G1 X72.087 Y123.960 E6.39615
G1 X72.291 Y123.727 E6.42433
G1 X73.614 Y123.020 E6.56075
G1 X76.823 Y122.598 E6.85507
G1 X77.092 Y122.580 E6.87962
G1 X77.677 Y122.598 E6.93286
G1 X80.241 Y122.935 E7.16808
G1 X80.506 Y122.988 E7.19262
G1 X81.066 Y123.157 E7.24584
G1 X83.456 Y124.146 E7.48107
G1 X83.698 Y124.266 E7.50562
G1 X84.196 Y124.573 E7.55885
G1 X85.666 Y125.702 E7.72741
G1 X86.268 Y126.435 E7.81367
G1 X86.760 Y127.432 E7.91476
G1 X86.809 Y127.645 E7.93463
G1 X86.896 Y127.757 E7.94752
G1 X88.460 Y128.593 E8.10884
G1 X89.843 Y131.933 E8.43763
G1 X89.930 Y132.189 E8.46218
G1 X90.065 Y132.759 E8.51541
G1 X90.402 Y135.323 E8.75063
G1 X90.420 Y135.592 E8.77518
G1 X90.402 Y136.177 E8.82841
G1 X90.065 Y138.741 E9.06362
G1 X90.012 Y139.006 E9.08816
G1 X89.843 Y139.567 E9.14139
G1 X88.481 Y142.856 E9.46522
G1 X87.155 Y143.405 E9.59574
G1 X86.461 Y143.016 F2400.000
G1 F600
G1 X86.350 Y143.182 E9.61384
G1 X86.350 Y144.037 E9.69162
G1 X84.302 Y146.086 E9.95509
