; generated by Slic3r 1.3.0 on 2019-02-16 at 21:42:23

; external perimeters extrusion width = 0.55mm (4.37mm^3/s)
; perimeters extrusion width = 0.70mm (11.44mm^3/s)
; infill extrusion width = 0.62mm (13.45mm^3/s)
; solid infill extrusion width = 0.70mm (3.81mm^3/s)
; top infill extrusion width = 0.70mm (2.86mm^3/s)

M107
M190 S60 ; set bed temperature and wait for it to be reached
M104 S200 ; set temperature
G28 ; home all axes
G1 Z5 F5000 ; lift nozzle

; Filament gcode

M109 S200 ; set temperature and wait for it to be reached
G21 ; set units to millimeters
G90 ; use absolute coordinates
M82 ; use absolute distances for extrusion
G92 E0
G1 Z0.350 F2400.000
G1 E-2.00000 F2400.00000
G92 E0
G1 X79.915 Y50.753 F2400.000
G1 E2.00000 F2400.00000
G1 F600
G1 X81.668 Y49.274 E2.20854
G1 X83.820 Y48.481 E2.41708
G1 X85.000 Y48.375 E2.52479
G1 X115.000 Y48.375 E5.25268
G1 X117.259 Y48.772 E5.46122
G1 X119.247 Y49.915 E5.66977
G1 X120.726 Y51.668 E5.87831
G1 X121.519 Y53.820 E6.08685
G1 X121.625 Y55.000 E6.19456
G1 X121.625 Y145.000 E14.37822
G1 X121.228 Y147.259 E14.58676
G1 X120.085 Y149.247 E14.79531
G1 X118.332 Y150.726 E15.00385
G1 X116.180 Y151.519 E15.21239
G1 X113.886 Y151.531 E15.42093
G1 X111.726 Y150.760 E15.62948
G1 X110.315 Y149.685 E15.79077
G1 X80.315 Y119.685 E19.64859
G1 X78.999 Y117.807 E19.85713
G1 X78.375 Y115.000 E20.11856
G1 X78.375 Y55.000 E25.57433
G1 X78.772 Y52.741 E25.78287
G1 X79.878 Y50.818 E25.98460
G1 E23.98460 F2400.00000
G92 E0
G1 X94.122 Y69.314 F2400.000
G1 E2.00000 F2400.00000
G1 F600
G1 X94.122 Y105.686 E5.30784
G1 X94.314 Y105.878 E5.33256
G1 X116.707 Y105.878 E7.36913
G1 X119.122 Y108.293 E7.67968
G1 X119.122 Y122.338 E8.95708
G1 X116.572 Y123.811 E9.22487
G1 X116.572 Y124.189 E9.25933
G1 X119.122 Y125.662 E9.52711
G1 X119.122 Y147.754 E11.53633
G1 X114.033 Y149.862 E12.03730
G1 X81.506 Y117.335 E16.22085
G1 X80.878 Y115.820 E16.36999
G1 X80.878 Y53.293 E22.05658
G1 X83.293 Y50.878 E22.36713
G1 X116.707 Y50.878 E25.40606
G1 X119.122 Y53.293 E25.71662
G1 X119.122 Y66.707 E26.93664
G1 X116.707 Y69.122 E27.24719
G1 X94.314 Y69.122 E29.28376
G1 X94.175 Y69.261 E29.30166
G1 X93.497 Y68.689 F2400.000
G1 F600
G1 X93.497 Y106.311 E32.72318
G1 X93.689 Y106.503 E32.74790
G1 X116.448 Y106.503 E34.81776
G1 X118.497 Y108.552 E35.08123
G1 X118.497 Y121.978 E36.30227
G1 X115.322 Y123.811 E36.63569
G1 X115.322 Y124.189 E36.67015
G1 X118.497 Y126.023 E37.00357
G1 X118.497 Y147.337 E38.94199
G1 X114.179 Y149.125 E39.36700
G1 X82.035 Y116.981 E43.50127
G1 X81.503 Y115.696 E43.62779
G1 X81.503 Y53.552 E49.27953
G1 X83.552 Y51.503 E49.54300
G1 X116.448 Y51.503 E52.53484
G1 X118.497 Y53.552 E52.79831
G1 X118.497 Y66.448 E53.97123
G1 X116.448 Y68.497 E54.23470
G1 X93.689 Y68.497 E56.30456
G1 X93.550 Y68.636 E56.32246
G1 E54.32246 F2400.00000
G92 E0
G1 X110.825 Y121.586 F2400.000
G1 E2.00000 F2400.00000
G1 F600
G1 X114.678 Y123.811 E2.40461
G1 X114.678 Y124.189 E2.43907
G1 X110.825 Y126.414 E2.84367
G1 X110.497 Y126.224 E2.87813
G1 X110.497 Y121.776 E3.28274
G1 X110.760 Y121.624 E3.31038
G1 X111.450 Y122.669 F2400.000
G1 F600
G1 X113.428 Y123.811 E3.51809
G1 X113.428 Y124.189 E3.55255
G1 X111.450 Y125.331 E3.76025
G1 X111.122 Y125.142 E3.79471
G1 X111.122 Y122.858 E4.00242
G1 X111.385 Y122.706 E4.03005
G1 E2.03005 F2400.00000
G92 E0
G1 X110.200 Y120.504 F2400.000
G1 E2.00000 F2400.00000
G1 F600
G1 X109.872 Y120.693 E2.03446
G1 X109.872 Y127.307 E2.63597
G1 X110.200 Y127.496 E2.67043
G1 X115.000 Y124.725 E3.17449
G1 X117.872 Y126.383 E3.47609
G1 X117.872 Y146.919 E5.34372
G1 X114.326 Y148.388 E5.69277
G1 X82.565 Y116.627 E9.77775
G1 X82.128 Y115.571 E9.88166
G1 X82.128 Y53.810 E15.49854
G1 X83.810 Y52.128 E15.71492
G1 X116.190 Y52.128 E18.65967
G1 X117.872 Y53.810 E18.87605
G1 X117.872 Y66.190 E20.00189
G1 X116.190 Y67.872 E20.21827
G1 X93.064 Y67.872 E22.32143
G1 X92.872 Y68.064 E22.34615
G1 X92.872 Y106.936 E25.88136
G1 X93.064 Y107.128 E25.90608
G1 X116.190 Y107.128 E28.00923
G1 X117.872 Y108.810 E28.22562
G1 X117.872 Y121.617 E29.39029
G1 X115.000 Y123.275 E29.69190
G1 X110.265 Y120.541 E30.18913
G1 X109.575 Y119.421 F2400.000
G1 F600
G1 X109.247 Y119.610 E30.22359
G1 X109.247 Y128.390 E31.02201
G1 X109.575 Y128.579 E31.05646
G1 X115.000 Y125.447 E31.62616
G1 X117.247 Y126.744 E31.86213
G1 X117.247 Y146.501 E33.65896
G1 X114.473 Y147.650 E33.93205
G1 X83.095 Y116.273 E37.96774
G1 X82.753 Y115.447 E38.04903
G1 X82.753 Y54.069 E43.63107
G1 X84.069 Y52.753 E43.80036
G1 X115.931 Y52.753 E46.69802
G1 X117.247 Y54.069 E46.86732
G1 X117.247 Y65.931 E47.94607
G1 X115.931 Y67.247 E48.11536
G1 X92.439 Y67.247 E50.25181
G1 X92.247 Y67.439 E50.27653
G1 X92.247 Y107.561 E53.92542
G1 X92.439 Y107.753 E53.95014
G1 X115.931 Y107.753 E56.08659
G1 X117.247 Y109.069 E56.25589
G1 X117.247 Y121.256 E57.36420
G1 X115.000 Y122.553 E57.60017
G1 X109.640 Y119.459 E58.16304
G1 X108.950 Y118.338 F2400.000
G1 F600
G1 X108.622 Y118.528 E58.19750
G1 X108.622 Y129.472 E59.19282
G1 X108.950 Y129.661 E59.22728
G1 X115.000 Y126.169 E59.86261
G1 X116.622 Y127.105 E60.03294
G1 X116.622 Y146.084 E61.75897
G1 X114.619 Y146.913 E61.95610
G1 X83.625 Y115.919 E65.94251
G1 X83.378 Y115.323 E66.00119
G1 X83.378 Y54.328 E71.54838
G1 X84.328 Y53.378 E71.67058
G1 X115.672 Y53.378 E74.52115
G1 X116.622 Y54.328 E74.64336
G1 X116.622 Y65.672 E75.67502
G1 X115.672 Y66.622 E75.79722
G1 X91.814 Y66.622 E77.96697
G1 X91.622 Y66.814 E77.99169
G1 X91.622 Y108.186 E81.75426
G1 X91.814 Y108.378 E81.77898
G1 X115.672 Y108.378 E83.94873
G1 X116.622 Y109.328 E84.07094
G1 X116.622 Y120.895 E85.12289
G1 X115.000 Y121.831 E85.29322
G1 X109.015 Y118.376 E85.92173
G1 X108.325 Y117.256 F2400.000
G1 F600
G1 X107.997 Y117.445 E85.95619
G1 X107.997 Y130.555 E87.14841
G1 X108.325 Y130.744 E87.18287
G1 X115.000 Y126.890 E87.88383
G1 X115.997 Y127.466 E87.98853
G1 X115.997 Y145.666 E89.64377
G1 X114.766 Y146.176 E89.76493
G1 X84.155 Y115.565 E93.70205
G1 X84.003 Y115.198 E93.73813
G1 X84.003 Y54.587 E99.25046
G1 X84.587 Y54.003 E99.32557
G1 X115.413 Y54.003 E102.12906
G1 X115.997 Y54.587 E102.20417
G1 X115.997 Y65.413 E103.18874
G1 X115.413 Y65.997 E103.26386
G1 X91.189 Y65.997 E105.46691
G1 X90.997 Y66.189 E105.49163
G1 X90.997 Y108.811 E109.36788
G1 X91.189 Y109.003 E109.39260
G1 X115.413 Y109.003 E111.59565
G1 X115.997 Y109.587 E111.67076
G1 X115.997 Y120.534 E112.66635
G1 X115.000 Y121.110 E112.77105
G1 X108.390 Y117.293 E113.46519
G1 X107.700 Y116.173 F2400.000
G1 F600
G1 X107.372 Y116.363 E113.49965
G1 X107.372 Y131.637 E114.88878
G1 X107.700 Y131.827 E114.92323
G1 X115.000 Y127.612 E115.68983
G1 X115.372 Y127.827 E115.72890
G1 X115.372 Y145.249 E117.31334
G1 X114.913 Y145.439 E117.35855
G1 X84.685 Y115.211 E121.24638
G1 X84.628 Y115.074 E121.25984
G1 X84.628 Y54.846 E126.73732
G1 X84.846 Y54.628 E126.76535
G1 X115.154 Y54.628 E129.52174
G1 X115.372 Y54.846 E129.54977
G1 X115.372 Y65.154 E130.48725
G1 X115.154 Y65.372 E130.51528
G1 X90.564 Y65.372 E132.75162
G1 X90.372 Y65.564 E132.77634
G1 X90.372 Y109.436 E136.76628
G1 X90.564 Y109.628 E136.79100
G1 X115.154 Y109.628 E139.02734
G1 X115.372 Y109.846 E139.05537
G1 X115.372 Y120.173 E139.99459
G1 X115.000 Y120.388 E140.03366
G1 X107.765 Y116.211 E140.79344
G1 E138.79344 F2400.00000
G92 E0
G1 X106.650 Y133.267 F2400.000
G1 E2.00000 F2400.00000
G1 F600
G1 X114.650 Y128.648 E2.83997
G1 X114.650 Y144.155 E4.25004
G1 X85.350 Y114.855 E8.01784
G1 X85.350 Y55.350 E13.42861
G1 X114.650 Y55.350 E16.09285
G1 X114.650 Y64.650 E16.93849
G1 X89.650 Y64.650 E19.21173
G1 X89.650 Y110.350 E23.36721
G1 X114.650 Y110.350 E25.64045
G1 X114.650 Y119.352 E26.45903
G1 X106.650 Y114.733 E27.29900
G1 X106.650 Y133.192 E28.97738
G1 X106.737 Y133.759 F2400.000
G1 X106.025 Y134.349 F2400.000
G1 F600
G1 X114.025 Y129.730 E29.81735
G1 X114.025 Y142.646 E30.99183
G1 X85.975 Y114.596 E34.59892
G1 X85.975 Y55.975 E39.92933
G1 X114.025 Y55.975 E42.47992
G1 X114.025 Y64.025 E43.21192
G1 X89.025 Y64.025 E45.48516
G1 X89.025 Y110.975 E49.75429
G1 X114.025 Y110.975 E52.02753
G1 X114.025 Y118.270 E52.69086
G1 X106.025 Y113.651 E53.53083
G1 X106.025 Y134.274 E55.40605
G1 E53.40605 F2400.00000
G92 E0
G1 X105.400 Y112.569 F2400.000
G1 E2.00000 F2400.00000
G1 F600
G1 X105.400 Y133.138 E3.87033
G1 X86.600 Y114.337 E6.28795
G1 X86.600 Y56.600 E11.53800
G1 X113.400 Y56.600 E13.97496
G1 X113.400 Y63.400 E14.59332
G1 X88.400 Y63.400 E16.86656
G1 X88.400 Y111.600 E21.24932
G1 X113.400 Y111.600 E23.52256
G1 X113.400 Y117.188 E24.03066
G1 X105.465 Y112.606 E24.86381
G1 E22.86381 F2400.00000
G92 E0
G1 X113.400 Y130.812 F2400.000
G1 E2.00000 F2400.00000
G1 F600
G1 X113.400 Y141.138 E2.93888
G1 X106.854 Y134.592 E3.78066
G1 X113.335 Y130.850 E4.46116
G1 E2.46116 F2400.00000
G92 E0
G1 X107.629 Y134.969 F2400.000
G1 E2.00000 F2400.00000
G1 F600
G1 X108.115 Y134.482 E2.06305
G1 X110.225 Y133.265 E2.28648
G1 X108.075 Y135.415 E2.56539
G1 X108.520 Y135.860 E2.62321
G1 X112.334 Y132.047 E3.11793
G1 X113.018 Y131.652 E3.19043
G1 X113.018 Y132.254 E3.24567
G1 X108.966 Y136.306 E3.77135
G1 X109.412 Y136.752 E3.82918
G1 X113.018 Y133.145 E4.29704
G1 X113.018 Y134.037 E4.37882
G1 X109.858 Y137.198 E4.78884
G1 X110.303 Y137.643 E4.84667
G1 X113.018 Y134.928 E5.19887
G1 X113.018 Y135.820 E5.28065
G1 X110.749 Y138.089 E5.57502
G1 X111.195 Y138.535 E5.63285
G1 X113.018 Y136.712 E5.86940
G1 X113.018 Y137.603 E5.95118
G1 X111.641 Y138.981 E6.12989
G1 X112.087 Y139.426 E6.18772
G1 X113.018 Y138.495 E6.30861
G1 X113.018 Y139.386 E6.39039
G1 X112.532 Y139.872 E6.45345
G1 E4.45345 F2400.00000
G92 E0
G1 X104.532 Y131.872 F2400.000
G1 E2.00000 F2400.00000
G1 F600
G1 X105.018 Y131.386 E2.06254
G1 X105.018 Y130.502 E2.14298
G1 X104.090 Y131.430 E2.26241
G1 X103.648 Y130.988 E2.31929
G1 X105.018 Y129.618 E2.49559
G1 X105.018 Y128.734 E2.57603
G1 X103.206 Y130.546 E2.80921
G1 X102.764 Y130.104 E2.86609
G1 X105.018 Y127.849 E3.15615
G1 X105.018 Y126.965 E3.23659
G1 X102.322 Y129.662 E3.58353
G1 X101.880 Y129.220 E3.64041
G1 X105.018 Y126.081 E4.04423
G1 X105.018 Y125.197 E4.12467
G1 X101.438 Y128.778 E4.58537
G1 X100.996 Y128.335 E4.64225
G1 X105.018 Y124.313 E5.15983
G1 X105.018 Y123.428 E5.24027
G1 X100.553 Y127.893 E5.81473
G1 X100.111 Y127.451 E5.87161
G1 X105.018 Y122.544 E6.50295
G1 X105.018 Y121.660 E6.58339
G1 X99.669 Y127.009 E7.27161
G1 X99.227 Y126.567 E7.32849
G1 X105.018 Y120.776 E8.07358
G1 X105.018 Y119.892 E8.15402
G1 X98.785 Y126.125 E8.95600
G1 X98.343 Y125.683 E9.01288
G1 X105.018 Y119.008 E9.87173
G1 X105.018 Y118.123 E9.95217
G1 X97.901 Y125.241 E10.86791
G1 X97.459 Y124.799 E10.92479
G1 X105.018 Y117.239 E11.89740
G1 X105.018 Y116.355 E11.97784
G1 X97.017 Y124.357 E13.00734
G1 X96.575 Y123.915 E13.06422
G1 X105.018 Y115.471 E14.15059
G1 X105.018 Y114.587 E14.23103
G1 X96.133 Y123.472 E15.37428
G1 X95.690 Y123.030 E15.43116
G1 X105.018 Y113.702 E16.63130
G1 X105.018 Y112.818 E16.71174
G1 X95.248 Y122.588 E17.96875
G1 X94.806 Y122.146 E18.02563
G1 X104.971 Y111.982 E19.33340
G1 X104.087 Y111.982 E19.41384
G1 X94.364 Y121.704 E20.66473
G1 X93.922 Y121.262 E20.72161
G1 X103.202 Y111.982 E21.91563
G1 X102.318 Y111.982 E21.99607
G1 X93.480 Y120.820 E23.13320
G1 X93.038 Y120.378 E23.19008
G1 X101.434 Y111.982 E24.27034
G1 X100.550 Y111.982 E24.35078
G1 X92.596 Y119.936 E25.37415
G1 X92.154 Y119.494 E25.43103
G1 X99.666 Y111.982 E26.39753
G1 X98.782 Y111.982 E26.47797
G1 X91.712 Y119.052 E27.38759
G1 X91.270 Y118.609 E27.44446
G1 X97.897 Y111.982 E28.29720
G1 X97.013 Y111.982 E28.37764
G1 X90.827 Y118.167 E29.17350
G1 X90.385 Y117.725 E29.23038
G1 X96.129 Y111.982 E29.96936
G1 X95.245 Y111.982 E30.04980
G1 X89.943 Y117.283 E30.73190
G1 X89.501 Y116.841 E30.78878
G1 X94.361 Y111.982 E31.41400
G1 X93.476 Y111.982 E31.49444
G1 X89.059 Y116.399 E32.06278
G1 X88.617 Y115.957 E32.11966
G1 X92.592 Y111.982 E32.63112
G1 X91.708 Y111.982 E32.71156
G1 X88.175 Y115.515 E33.16614
G1 X87.733 Y115.073 E33.22302
G1 X90.824 Y111.982 E33.62072
G1 X89.940 Y111.982 E33.70116
G1 X87.291 Y114.631 E34.04198
G1 X86.982 Y114.322 E34.08175
G1 X86.982 Y114.056 E34.10595
G1 X89.056 Y111.982 E34.37278
G1 X88.171 Y111.982 E34.45322
G1 X86.982 Y113.171 E34.60629
G1 X86.982 Y112.287 E34.68673
G1 X88.018 Y111.250 E34.82012
G1 X88.018 Y110.366 E34.90056
G1 X86.982 Y111.403 E35.03395
G1 X86.982 Y110.519 E35.11439
G1 X88.018 Y109.482 E35.24778
G1 X88.018 Y108.598 E35.32822
G1 X86.982 Y109.635 E35.46161
G1 X86.982 Y108.750 E35.54205
G1 X88.018 Y107.714 E35.67544
G1 X88.018 Y106.830 E35.75588
G1 X86.982 Y107.866 E35.88927
G1 X86.982 Y106.982 E35.96971
G1 X88.018 Y105.945 E36.10309
G1 X88.018 Y105.061 E36.18353
G1 X86.982 Y106.098 E36.31692
G1 X86.982 Y105.214 E36.39736
G1 X88.018 Y104.177 E36.53075
G1 X88.018 Y103.293 E36.61119
G1 X86.982 Y104.330 E36.74458
G1 X86.982 Y103.445 E36.82502
G1 X88.018 Y102.409 E36.95841
G1 X88.018 Y101.524 E37.03885
G1 X86.982 Y102.561 E37.17224
G1 X86.982 Y101.677 E37.25268
G1 X88.018 Y100.640 E37.38607
G1 X88.018 Y99.756 E37.46651
G1 X86.982 Y100.793 E37.59990
G1 X86.982 Y99.909 E37.68034
G1 X88.018 Y98.872 E37.81373
G1 X88.018 Y97.988 E37.89417
G1 X86.982 Y99.024 E38.02756
G1 X86.982 Y98.140 E38.10800
G1 X88.018 Y97.104 E38.24139
G1 X88.018 Y96.219 E38.32182
G1 X86.982 Y97.256 E38.45521
G1 X86.982 Y96.372 E38.53565
G1 X88.018 Y95.335 E38.66904
G1 X88.018 Y94.451 E38.74948
G1 X86.982 Y95.488 E38.88287
G1 X86.982 Y94.604 E38.96331
G1 X88.018 Y93.567 E39.09670
G1 X88.018 Y92.683 E39.17714
G1 X86.982 Y93.719 E39.31053
G1 X86.982 Y92.835 E39.39097
G1 X88.018 Y91.798 E39.52436
G1 X88.018 Y90.914 E39.60480
G1 X86.982 Y91.951 E39.73819
G1 X86.982 Y91.067 E39.81863
G1 X88.018 Y90.030 E39.95202
G1 X88.018 Y89.146 E40.03246
G1 X86.982 Y90.183 E40.16585
G1 X86.982 Y89.298 E40.24629
G1 X88.018 Y88.262 E40.37967
G1 X88.018 Y87.378 E40.46011
G1 X86.982 Y88.414 E40.59350
G1 X86.982 Y87.530 E40.67394
G1 X88.018 Y86.493 E40.80733
G1 X88.018 Y85.609 E40.88777
G1 X86.982 Y86.646 E41.02116
G1 X86.982 Y85.762 E41.10160
G1 X88.018 Y84.725 E41.23499
G1 X88.018 Y83.841 E41.31543
G1 X86.982 Y84.878 E41.44882
G1 X86.982 Y83.993 E41.52926
G1 X88.018 Y82.957 E41.66265
G1 X88.018 Y82.072 E41.74309
G1 X86.982 Y83.109 E41.87648
G1 X86.982 Y82.225 E41.95692
G1 X88.018 Y81.188 E42.09031
G1 X88.018 Y80.304 E42.17075
G1 X86.982 Y81.341 E42.30414
G1 X86.982 Y80.457 E42.38458
G1 X88.018 Y79.420 E42.51796
G1 X88.018 Y78.536 E42.59840
G1 X86.982 Y79.572 E42.73179
G1 X86.982 Y78.688 E42.81223
G1 X88.018 Y77.652 E42.94562
G1 X88.018 Y76.767 E43.02606
G1 X86.982 Y77.804 E43.15945
G1 X86.982 Y76.920 E43.23989
G1 X88.018 Y75.883 E43.37328
G1 X88.018 Y74.999 E43.45372
G1 X86.982 Y76.036 E43.58711
G1 X86.982 Y75.152 E43.66755
G1 X88.018 Y74.115 E43.80094
G1 X88.018 Y73.231 E43.88138
G1 X86.982 Y74.267 E44.01477
G1 X86.982 Y73.383 E44.09521
G1 X88.018 Y72.346 E44.22860
G1 X88.018 Y71.462 E44.30904
G1 X86.982 Y72.499 E44.44243
G1 X86.982 Y71.615 E44.52287
G1 X88.018 Y70.578 E44.65626
G1 X88.018 Y69.694 E44.73670
G1 X86.982 Y70.731 E44.87008
G1 X86.982 Y69.846 E44.95052
G1 X88.018 Y68.810 E45.08391
G1 X88.018 Y67.926 E45.16435
G1 X86.982 Y68.962 E45.29774
G1 X86.982 Y68.078 E45.37818
G1 X88.018 Y67.041 E45.51157
G1 X88.018 Y66.157 E45.59201
G1 X86.982 Y67.194 E45.72540
G1 X86.982 Y66.310 E45.80584
G1 X88.018 Y65.273 E45.93923
G1 X88.018 Y64.389 E46.01967
G1 X86.982 Y65.426 E46.15306
G1 X86.982 Y64.541 E46.23350
G1 X88.018 Y63.505 E46.36689
G1 X88.018 Y62.620 E46.44733
G1 X86.982 Y63.657 E46.58072
G1 X86.982 Y62.773 E46.66116
G1 X92.773 Y56.982 E47.40628
G1 X91.889 Y56.982 E47.48672
G1 X86.982 Y61.889 E48.11808
G1 X86.982 Y61.005 E48.19852
G1 X91.005 Y56.982 E48.71612
G1 X90.120 Y56.982 E48.79656
G1 X86.982 Y60.120 E49.20040
G1 X86.982 Y59.236 E49.28084
G1 X89.236 Y56.982 E49.57093
G1 X88.352 Y56.982 E49.65137
G1 X86.982 Y58.352 E49.82769
G1 X86.982 Y57.468 E49.90813
G1 X87.468 Y56.982 E49.97070
G1 E47.97070 F2400.00000
G92 E0
G1 X92.773 Y56.982 F2400.000
G1 E2.00000 F2400.00000
G1 F600
G1 X93.657 Y56.982 E2.08044
G1 X87.620 Y63.018 E2.85713
G1 X88.505 Y63.018 E2.93757
G1 X94.541 Y56.982 E3.71426
